(G-CODE GENERATED BY FLATCAM v8.993 - www.flatcam.org - Version Date: 2020/06/05)

(Name: jf-ecu32.7-B_Cu.gbr_noncopper_cnc)
(Type: G-code from Geometry)
(Units: MM)

(Created on Saturday, 28 December 2024 at 03:00)

(This preprocessor is the default preprocessor used by FlatCAM.)
(It is made to work with MACH3 compatible motion controllers.)

(TOOL DIAMETER: 2.4 mm)
(Feedrate_XY: 120.0 mm/min)
(Feedrate_Z: 60.0 mm/min)
(Feedrate rapids 1500.0 mm/min)

(Z_Cut: -2.4 mm)
(Z_Move: 2.0 mm)
(Z Start: None mm)
(Z End: 15.0 mm)
(Steps per circle: 64)
(Preprocessor Geometry: default)

(X range:   12.7270 ...   84.1735  mm)
(Y range: -198.1340 ... -150.2680  mm)

(Spindle Speed: None RPM)
G21
G90
G94



G01 F120.00
G00 Z2.0000

M03
G00 X19.2323 Y-153.3278
G01 F60.00
G01 Z-2.4000
G01 F120.00
G01 X19.2526 Y-153.4087
G01 X19.2807 Y-153.4873
G01 X19.3164 Y-153.5627
G01 X19.3593 Y-153.6342
G01 X19.4089 Y-153.7012
G01 X19.4650 Y-153.7630
G01 X19.5268 Y-153.8191
G01 X19.5938 Y-153.8687
G01 X19.6653 Y-153.9116
G01 X19.7407 Y-153.9473
G01 X19.8193 Y-153.9754
G01 X19.9002 Y-153.9957
G01 X19.9827 Y-154.0079
G01 X20.0660 Y-154.0120
G01 X20.1493 Y-154.0079
G01 X20.2318 Y-153.9957
G01 X20.3127 Y-153.9754
G01 X20.3913 Y-153.9473
G01 X20.4667 Y-153.9116
G01 X20.5382 Y-153.8687
G01 X20.6052 Y-153.8191
G01 X20.6670 Y-153.7630
G01 X20.7231 Y-153.7012
G01 X20.7727 Y-153.6342
G01 X20.8156 Y-153.5627
G01 X20.8513 Y-153.4873
G01 X20.8794 Y-153.4087
G01 X20.8997 Y-153.3278
G01 X20.9119 Y-153.2453
G01 X20.9160 Y-153.1620
G01 X20.9119 Y-153.0787
G01 X20.8997 Y-152.9962
G01 X20.8794 Y-152.9153
G01 X20.8513 Y-152.8367
G01 X20.8156 Y-152.7613
G01 X20.7727 Y-152.6898
G01 X20.7231 Y-152.6228
G01 X20.6670 Y-152.5610
G01 X20.6052 Y-152.5049
G01 X20.5382 Y-152.4553
G01 X20.4667 Y-152.4124
G01 X20.3913 Y-152.3767
G01 X20.3127 Y-152.3486
G01 X20.2318 Y-152.3283
G01 X20.1493 Y-152.3161
G01 X20.0660 Y-152.3120
G01 X19.9827 Y-152.3161
G01 X19.9002 Y-152.3283
G01 X19.8193 Y-152.3486
G01 X19.7407 Y-152.3767
G01 X19.6653 Y-152.4124
G01 X19.5938 Y-152.4553
G01 X19.5268 Y-152.5049
G01 X19.4650 Y-152.5610
G01 X19.4089 Y-152.6228
G01 X19.3593 Y-152.6898
G01 X19.3164 Y-152.7613
G01 X19.2807 Y-152.8367
G01 X19.2526 Y-152.9153
G01 X19.2323 Y-152.9962
G01 X19.2201 Y-153.0787
G01 X19.2160 Y-153.1620
G01 X19.2201 Y-153.2453
G01 X19.2323 Y-153.3278
G00 Z2.0000
G00 X23.4560 Y-154.0120
G01 F60.00
G01 Z-2.4000
G01 F120.00
G01 X23.4560 Y-153.2871
G01 X24.3747 Y-153.2871
G01 X24.3751 Y-153.2943
G01 X24.3769 Y-153.3064
G01 X24.3799 Y-153.3183
G01 X24.3840 Y-153.3299
G01 X24.3892 Y-153.3410
G01 X24.3956 Y-153.3515
G01 X24.4029 Y-153.3613
G01 X24.4111 Y-153.3704
G01 X25.5611 Y-154.5204
G01 X25.5702 Y-154.5287
G01 X25.5801 Y-154.5360
G01 X25.5906 Y-154.5423
G01 X25.6017 Y-154.5475
G01 X25.6132 Y-154.5517
G01 X25.6251 Y-154.5547
G01 X25.6373 Y-154.5565
G01 X25.6495 Y-154.5571
G01 X29.3297 Y-154.5571
G01 X31.3439 Y-156.5713
G01 X31.3439 Y-158.0135
G01 X31.3445 Y-158.0257
G01 X31.3463 Y-158.0379
G01 X31.3493 Y-158.0498
G01 X31.3535 Y-158.0613
G01 X31.3587 Y-158.0724
G01 X31.3650 Y-158.0829
G01 X31.3723 Y-158.0928
G01 X31.3806 Y-158.1019
G01 X31.7821 Y-158.5034
G01 X31.7912 Y-158.5117
G01 X31.8011 Y-158.5190
G01 X31.8116 Y-158.5253
G01 X31.8227 Y-158.5305
G01 X31.8342 Y-158.5347
G01 X31.8461 Y-158.5377
G01 X31.8583 Y-158.5395
G01 X31.8705 Y-158.5401
G01 X35.6812 Y-158.5401
G01 X35.9429 Y-158.8018
G01 X35.9429 Y-164.1105
G01 X35.9435 Y-164.1227
G01 X35.9453 Y-164.1349
G01 X35.9483 Y-164.1468
G01 X35.9525 Y-164.1583
G01 X35.9577 Y-164.1694
G01 X35.9640 Y-164.1799
G01 X35.9713 Y-164.1898
G01 X35.9796 Y-164.1989
G01 X38.4499 Y-166.6693
G01 X38.4499 Y-174.9502
G01 X37.5238 Y-175.8763
G01 X37.5039 Y-175.8713
G01 X37.4821 Y-175.8681
G01 X37.4600 Y-175.8670
G01 X37.0100 Y-175.8670
G01 X36.9879 Y-175.8681
G01 X36.9661 Y-175.8713
G01 X36.9447 Y-175.8767
G01 X36.9239 Y-175.8841
G01 X36.9039 Y-175.8936
G01 X36.8850 Y-175.9049
G01 X36.8673 Y-175.9181
G01 X36.8509 Y-175.9329
G01 X36.8361 Y-175.9493
G01 X36.8229 Y-175.9670
G01 X36.8116 Y-175.9859
G01 X36.8021 Y-176.0059
G01 X36.7947 Y-176.0267
G01 X36.7893 Y-176.0481
G01 X36.7861 Y-176.0699
G01 X36.7850 Y-176.0920
G01 X36.7850 Y-176.5920
G01 X36.7861 Y-176.6141
G01 X36.7893 Y-176.6359
G01 X36.7947 Y-176.6573
G01 X36.8021 Y-176.6781
G01 X36.8116 Y-176.6981
G01 X36.8229 Y-176.7170
G01 X36.8361 Y-176.7347
G01 X36.8509 Y-176.7511
G01 X36.8673 Y-176.7659
G01 X36.8850 Y-176.7791
G01 X36.9039 Y-176.7904
G01 X36.9239 Y-176.7999
G01 X36.9447 Y-176.8073
G01 X36.9661 Y-176.8127
G01 X36.9879 Y-176.8159
G01 X37.0100 Y-176.8170
G01 X37.4600 Y-176.8170
G01 X37.4821 Y-176.8159
G01 X37.5039 Y-176.8127
G01 X37.5253 Y-176.8073
G01 X37.5461 Y-176.7999
G01 X37.5661 Y-176.7904
G01 X37.5850 Y-176.7791
G01 X37.6027 Y-176.7659
G01 X37.6191 Y-176.7511
G01 X37.6339 Y-176.7347
G01 X37.6471 Y-176.7170
G01 X37.6584 Y-176.6981
G01 X37.6679 Y-176.6781
G01 X37.6753 Y-176.6573
G01 X37.6807 Y-176.6359
G01 X37.6839 Y-176.6141
G01 X37.6850 Y-176.5920
G01 X37.6850 Y-176.0920
G01 X37.6839 Y-176.0699
G01 X38.6634 Y-175.0904
G01 X38.6717 Y-175.0813
G01 X38.6790 Y-175.0715
G01 X38.6853 Y-175.0610
G01 X38.6905 Y-175.0499
G01 X38.6947 Y-175.0383
G01 X38.6977 Y-175.0264
G01 X38.6995 Y-175.0143
G01 X38.7001 Y-175.0020
G01 X38.7001 Y-166.6175
G01 X38.6995 Y-166.6052
G01 X38.6977 Y-166.5931
G01 X38.6947 Y-166.5812
G01 X38.6905 Y-166.5696
G01 X38.6853 Y-166.5585
G01 X38.6790 Y-166.5480
G01 X38.6717 Y-166.5381
G01 X38.6634 Y-166.5290
G01 X36.1931 Y-164.0587
G01 X36.1931 Y-158.7500
G01 X36.1925 Y-158.7377
G01 X36.1907 Y-158.7256
G01 X36.1877 Y-158.7137
G01 X36.1835 Y-158.7021
G01 X36.1783 Y-158.6910
G01 X36.1720 Y-158.6805
G01 X36.1647 Y-158.6707
G01 X36.1564 Y-158.6616
G01 X35.8214 Y-158.3266
G01 X35.8123 Y-158.3183
G01 X35.8025 Y-158.3110
G01 X35.7920 Y-158.3047
G01 X35.7809 Y-158.2995
G01 X35.7693 Y-158.2953
G01 X35.7574 Y-158.2923
G01 X35.7453 Y-158.2905
G01 X35.7330 Y-158.2899
G01 X31.9223 Y-158.2899
G01 X31.5941 Y-157.9617
G01 X31.5941 Y-156.5195
G01 X31.5935 Y-156.5072
G01 X31.5917 Y-156.4951
G01 X31.5887 Y-156.4832
G01 X31.5845 Y-156.4716
G01 X31.5793 Y-156.4605
G01 X31.5730 Y-156.4500
G01 X31.5657 Y-156.4402
G01 X31.5574 Y-156.4311
G01 X29.4699 Y-154.3436
G01 X29.4608 Y-154.3353
G01 X29.4510 Y-154.3280
G01 X29.4405 Y-154.3217
G01 X29.4294 Y-154.3165
G01 X29.4178 Y-154.3123
G01 X29.4059 Y-154.3093
G01 X29.3938 Y-154.3075
G01 X29.3815 Y-154.3069
G01 X25.7013 Y-154.3069
G01 X24.6246 Y-153.2302
G01 X24.6246 Y-153.1620
G01 X24.6240 Y-153.1497
G01 X24.6222 Y-153.1376
G01 X24.6192 Y-153.1257
G01 X24.6151 Y-153.1141
G01 X24.6098 Y-153.1030
G01 X24.6035 Y-153.0925
G01 X24.5962 Y-153.0827
G01 X24.5880 Y-153.0736
G01 X24.5789 Y-153.0653
G01 X24.5690 Y-153.0580
G01 X24.5585 Y-153.0517
G01 X24.5474 Y-153.0465
G01 X24.5358 Y-153.0423
G01 X24.5239 Y-153.0393
G01 X24.5118 Y-153.0375
G01 X24.4995 Y-153.0369
G01 X23.4560 Y-153.0369
G01 X23.4560 Y-152.3120
G01 X21.7560 Y-152.3120
G01 X21.7560 Y-154.0120
G01 X23.4560 Y-154.0120
G00 Z2.0000
G00 X28.7900 Y-153.0444
G01 F60.00
G01 Z-2.4000
G01 F120.00
G01 X28.7900 Y-152.3120
G01 X27.0900 Y-152.3120
G01 X27.0900 Y-154.0120
G01 X28.7900 Y-154.0120
G01 X28.7900 Y-153.3810
G01 X31.3265 Y-155.9174
G01 X31.3356 Y-155.9257
G01 X31.3454 Y-155.9330
G01 X31.3559 Y-155.9393
G01 X31.3670 Y-155.9445
G01 X31.3786 Y-155.9487
G01 X31.3905 Y-155.9517
G01 X31.4026 Y-155.9535
G01 X31.4149 Y-155.9541
G01 X33.6340 Y-155.9541
G01 X33.6340 Y-155.9790
G01 X33.6347 Y-155.9937
G01 X33.6369 Y-156.0083
G01 X33.6405 Y-156.0225
G01 X33.6454 Y-156.0364
G01 X33.6517 Y-156.0497
G01 X33.6593 Y-156.0623
G01 X33.6680 Y-156.0742
G01 X33.6779 Y-156.0851
G01 X33.6888 Y-156.0950
G01 X33.7007 Y-156.1037
G01 X33.7133 Y-156.1113
G01 X33.7266 Y-156.1176
G01 X33.7405 Y-156.1225
G01 X33.7547 Y-156.1261
G01 X33.7693 Y-156.1283
G01 X33.7840 Y-156.1290
G01 X35.4340 Y-156.1290
G01 X35.4487 Y-156.1283
G01 X35.4633 Y-156.1261
G01 X35.4775 Y-156.1225
G01 X35.4914 Y-156.1176
G01 X35.5047 Y-156.1113
G01 X35.5173 Y-156.1037
G01 X35.5292 Y-156.0950
G01 X35.5401 Y-156.0851
G01 X35.5500 Y-156.0742
G01 X35.5587 Y-156.0623
G01 X35.5663 Y-156.0497
G01 X35.5726 Y-156.0364
G01 X35.5775 Y-156.0225
G01 X35.5811 Y-156.0083
G01 X35.5833 Y-155.9937
G01 X35.5840 Y-155.9790
G01 X35.5840 Y-155.6790
G01 X35.5833 Y-155.6643
G01 X35.5811 Y-155.6497
G01 X35.5775 Y-155.6355
G01 X35.5726 Y-155.6216
G01 X35.5663 Y-155.6083
G01 X35.5587 Y-155.5957
G01 X35.5500 Y-155.5838
G01 X35.5401 Y-155.5729
G01 X35.5292 Y-155.5630
G01 X35.5173 Y-155.5543
G01 X35.5047 Y-155.5467
G01 X35.4914 Y-155.5404
G01 X35.4775 Y-155.5355
G01 X35.4633 Y-155.5319
G01 X35.4487 Y-155.5297
G01 X35.4340 Y-155.5290
G01 X33.7840 Y-155.5290
G01 X33.7693 Y-155.5297
G01 X33.7547 Y-155.5319
G01 X33.7405 Y-155.5355
G01 X33.7266 Y-155.5404
G01 X33.7133 Y-155.5467
G01 X33.7007 Y-155.5543
G01 X33.6888 Y-155.5630
G01 X33.6779 Y-155.5729
G01 X33.6680 Y-155.5838
G01 X33.6593 Y-155.5957
G01 X33.6517 Y-155.6083
G01 X33.6454 Y-155.6216
G01 X33.6405 Y-155.6355
G01 X33.6369 Y-155.6497
G01 X33.6347 Y-155.6643
G01 X33.6340 Y-155.6790
G01 X33.6340 Y-155.7039
G01 X31.4667 Y-155.7039
G01 X30.9861 Y-155.2233
G01 X30.9861 Y-155.1188
G01 X30.9921 Y-155.1128
G01 X31.0060 Y-155.1231
G01 X31.0249 Y-155.1344
G01 X31.0449 Y-155.1439
G01 X31.0657 Y-155.1513
G01 X31.0871 Y-155.1567
G01 X31.1089 Y-155.1599
G01 X31.1310 Y-155.1610
G01 X31.5810 Y-155.1610
G01 X31.6031 Y-155.1599
G01 X31.6249 Y-155.1567
G01 X31.6463 Y-155.1513
G01 X31.6671 Y-155.1439
G01 X31.6871 Y-155.1344
G01 X31.7060 Y-155.1231
G01 X31.7237 Y-155.1099
G01 X31.7401 Y-155.0951
G01 X31.7549 Y-155.0787
G01 X31.7681 Y-155.0610
G01 X31.7794 Y-155.0421
G01 X31.7889 Y-155.0221
G01 X31.7963 Y-155.0013
G01 X31.8017 Y-154.9799
G01 X31.8049 Y-154.9581
G01 X31.8060 Y-154.9360
G01 X31.8060 Y-154.4360
G01 X31.8049 Y-154.4139
G01 X31.8017 Y-154.3921
G01 X31.7963 Y-154.3707
G01 X31.7889 Y-154.3499
G01 X31.7794 Y-154.3299
G01 X31.7681 Y-154.3110
G01 X31.7549 Y-154.2933
G01 X31.7401 Y-154.2769
G01 X31.7237 Y-154.2621
G01 X31.7060 Y-154.2489
G01 X31.6871 Y-154.2376
G01 X31.6671 Y-154.2281
G01 X31.6463 Y-154.2207
G01 X31.6249 Y-154.2153
G01 X31.6031 Y-154.2121
G01 X31.5810 Y-154.2110
G01 X31.1310 Y-154.2110
G01 X31.1089 Y-154.2121
G01 X31.0871 Y-154.2153
G01 X31.0657 Y-154.2207
G01 X31.0449 Y-154.2281
G01 X31.0249 Y-154.2376
G01 X31.0060 Y-154.2489
G01 X30.9883 Y-154.2621
G01 X30.9719 Y-154.2769
G01 X30.9571 Y-154.2933
G01 X30.9439 Y-154.3110
G01 X30.9326 Y-154.3299
G01 X30.9231 Y-154.3499
G01 X30.9157 Y-154.3707
G01 X30.9103 Y-154.3921
G01 X30.9071 Y-154.4139
G01 X30.9060 Y-154.4360
G01 X30.9060 Y-154.8451
G01 X30.7726 Y-154.9786
G01 X30.7643 Y-154.9877
G01 X30.7584 Y-154.9956
G01 X28.8363 Y-153.0736
G01 X28.8272 Y-153.0653
G01 X28.8174 Y-153.0580
G01 X28.8069 Y-153.0517
G01 X28.7958 Y-153.0465
G01 X28.7900 Y-153.0444
G00 Z2.0000
G00 X29.6463 Y-153.3278
G01 F60.00
G01 Z-2.4000
G01 F120.00
G01 X29.6666 Y-153.4087
G01 X29.6947 Y-153.4873
G01 X29.7304 Y-153.5627
G01 X29.7733 Y-153.6342
G01 X29.8229 Y-153.7012
G01 X29.8790 Y-153.7630
G01 X29.9408 Y-153.8191
G01 X30.0078 Y-153.8687
G01 X30.0793 Y-153.9116
G01 X30.1547 Y-153.9473
G01 X30.2333 Y-153.9754
G01 X30.3142 Y-153.9957
G01 X30.3967 Y-154.0079
G01 X30.4800 Y-154.0120
G01 X30.5633 Y-154.0079
G01 X30.6458 Y-153.9957
G01 X30.7267 Y-153.9754
G01 X30.8053 Y-153.9473
G01 X30.8807 Y-153.9116
G01 X30.9522 Y-153.8687
G01 X31.0192 Y-153.8191
G01 X31.0810 Y-153.7630
G01 X31.1371 Y-153.7012
G01 X31.1867 Y-153.6342
G01 X31.2296 Y-153.5627
G01 X31.2653 Y-153.4873
G01 X31.2934 Y-153.4087
G01 X31.3137 Y-153.3278
G01 X31.3197 Y-153.2871
G01 X31.6033 Y-153.2871
G01 X32.5617 Y-154.2455
G01 X32.5560 Y-154.2489
G01 X32.5383 Y-154.2621
G01 X32.5219 Y-154.2769
G01 X32.5071 Y-154.2933
G01 X32.4939 Y-154.3110
G01 X32.4826 Y-154.3299
G01 X32.4731 Y-154.3499
G01 X32.4657 Y-154.3707
G01 X32.4603 Y-154.3921
G01 X32.4571 Y-154.4139
G01 X32.4560 Y-154.4360
G01 X32.4560 Y-154.9360
G01 X32.4571 Y-154.9581
G01 X32.4603 Y-154.9799
G01 X32.4657 Y-155.0013
G01 X32.4731 Y-155.0221
G01 X32.4826 Y-155.0421
G01 X32.4939 Y-155.0610
G01 X32.5071 Y-155.0787
G01 X32.5219 Y-155.0951
G01 X32.5383 Y-155.1099
G01 X32.5560 Y-155.1231
G01 X32.5749 Y-155.1344
G01 X32.5949 Y-155.1439
G01 X32.6157 Y-155.1513
G01 X32.6371 Y-155.1567
G01 X32.6589 Y-155.1599
G01 X32.6810 Y-155.1610
G01 X33.1310 Y-155.1610
G01 X33.1531 Y-155.1599
G01 X33.1749 Y-155.1567
G01 X33.1963 Y-155.1513
G01 X33.2171 Y-155.1439
G01 X33.2371 Y-155.1344
G01 X33.2560 Y-155.1231
G01 X33.2737 Y-155.1099
G01 X33.2901 Y-155.0951
G01 X33.3049 Y-155.0787
G01 X33.3181 Y-155.0610
G01 X33.3294 Y-155.0421
G01 X33.3389 Y-155.0221
G01 X33.3463 Y-155.0013
G01 X33.3517 Y-154.9799
G01 X33.3549 Y-154.9581
G01 X33.3560 Y-154.9360
G01 X33.3560 Y-154.6841
G01 X33.6340 Y-154.6841
G01 X33.6340 Y-154.7090
G01 X33.6347 Y-154.7237
G01 X33.6369 Y-154.7383
G01 X33.6405 Y-154.7525
G01 X33.6454 Y-154.7664
G01 X33.6517 Y-154.7797
G01 X33.6593 Y-154.7923
G01 X33.6680 Y-154.8042
G01 X33.6779 Y-154.8151
G01 X33.6888 Y-154.8250
G01 X33.7007 Y-154.8337
G01 X33.7133 Y-154.8413
G01 X33.7266 Y-154.8476
G01 X33.7405 Y-154.8525
G01 X33.7547 Y-154.8561
G01 X33.7693 Y-154.8583
G01 X33.7840 Y-154.8590
G01 X35.4340 Y-154.8590
G01 X35.4487 Y-154.8583
G01 X35.4633 Y-154.8561
G01 X35.4775 Y-154.8525
G01 X35.4914 Y-154.8476
G01 X35.5047 Y-154.8413
G01 X35.5173 Y-154.8337
G01 X35.5292 Y-154.8250
G01 X35.5401 Y-154.8151
G01 X35.5500 Y-154.8042
G01 X35.5587 Y-154.7923
G01 X35.5663 Y-154.7797
G01 X35.5726 Y-154.7664
G01 X35.5775 Y-154.7525
G01 X35.5811 Y-154.7383
G01 X35.5833 Y-154.7237
G01 X35.5840 Y-154.7090
G01 X35.5840 Y-154.4090
G01 X35.5833 Y-154.3943
G01 X35.5811 Y-154.3797
G01 X35.5775 Y-154.3655
G01 X35.5726 Y-154.3516
G01 X35.5663 Y-154.3383
G01 X35.5587 Y-154.3257
G01 X35.5500 Y-154.3138
G01 X35.5401 Y-154.3029
G01 X35.5292 Y-154.2930
G01 X35.5173 Y-154.2843
G01 X35.5047 Y-154.2767
G01 X35.4914 Y-154.2704
G01 X35.4775 Y-154.2655
G01 X35.4633 Y-154.2619
G01 X35.4487 Y-154.2597
G01 X35.4340 Y-154.2590
G01 X33.7840 Y-154.2590
G01 X33.7693 Y-154.2597
G01 X33.7547 Y-154.2619
G01 X33.7405 Y-154.2655
G01 X33.7266 Y-154.2704
G01 X33.7133 Y-154.2767
G01 X33.7007 Y-154.2843
G01 X33.6888 Y-154.2930
G01 X33.6779 Y-154.3029
G01 X33.6680 Y-154.3138
G01 X33.6593 Y-154.3257
G01 X33.6517 Y-154.3383
G01 X33.6454 Y-154.3516
G01 X33.6405 Y-154.3655
G01 X33.6369 Y-154.3797
G01 X33.6347 Y-154.3943
G01 X33.6340 Y-154.4090
G01 X33.6340 Y-154.4339
G01 X33.3559 Y-154.4339
G01 X33.3549 Y-154.4139
G01 X33.3517 Y-154.3921
G01 X33.3463 Y-154.3707
G01 X33.3389 Y-154.3499
G01 X33.3294 Y-154.3299
G01 X33.3181 Y-154.3110
G01 X33.3049 Y-154.2933
G01 X33.2901 Y-154.2769
G01 X33.2737 Y-154.2621
G01 X33.2560 Y-154.2489
G01 X33.2371 Y-154.2376
G01 X33.2171 Y-154.2281
G01 X33.1963 Y-154.2207
G01 X33.1749 Y-154.2153
G01 X33.1531 Y-154.2121
G01 X33.1310 Y-154.2110
G01 X32.8810 Y-154.2110
G01 X31.7435 Y-153.0736
G01 X31.7344 Y-153.0653
G01 X31.7246 Y-153.0580
G01 X31.7141 Y-153.0517
G01 X31.7030 Y-153.0465
G01 X31.6914 Y-153.0423
G01 X31.6795 Y-153.0393
G01 X31.6674 Y-153.0375
G01 X31.6551 Y-153.0369
G01 X31.3197 Y-153.0369
G01 X31.3137 Y-152.9962
G01 X31.2934 Y-152.9153
G01 X31.2653 Y-152.8367
G01 X31.2296 Y-152.7613
G01 X31.1867 Y-152.6898
G01 X31.1371 Y-152.6228
G01 X31.0810 Y-152.5610
G01 X31.0192 Y-152.5049
G01 X30.9522 Y-152.4553
G01 X30.8807 Y-152.4124
G01 X30.8053 Y-152.3767
G01 X30.7267 Y-152.3486
G01 X30.6458 Y-152.3283
G01 X30.5633 Y-152.3161
G01 X30.4800 Y-152.3120
G01 X30.3967 Y-152.3161
G01 X30.3142 Y-152.3283
G01 X30.2333 Y-152.3486
G01 X30.1547 Y-152.3767
G01 X30.0793 Y-152.4124
G01 X30.0078 Y-152.4553
G01 X29.9408 Y-152.5049
G01 X29.8790 Y-152.5610
G01 X29.8229 Y-152.6228
G01 X29.7733 Y-152.6898
G01 X29.7304 Y-152.7613
G01 X29.6947 Y-152.8367
G01 X29.6666 Y-152.9153
G01 X29.6463 Y-152.9962
G01 X29.6341 Y-153.0787
G01 X29.6300 Y-153.1620
G01 X29.6341 Y-153.2453
G01 X29.6463 Y-153.3278
G00 Z2.0000
G00 X33.6340 Y-153.1390
G01 F60.00
G01 Z-2.4000
G01 F120.00
G01 X33.6340 Y-153.4390
G01 X33.6347 Y-153.4537
G01 X33.6369 Y-153.4683
G01 X33.6405 Y-153.4825
G01 X33.6454 Y-153.4964
G01 X33.6517 Y-153.5097
G01 X33.6593 Y-153.5223
G01 X33.6680 Y-153.5342
G01 X33.6779 Y-153.5451
G01 X33.6888 Y-153.5550
G01 X33.7007 Y-153.5637
G01 X33.7133 Y-153.5713
G01 X33.7266 Y-153.5776
G01 X33.7405 Y-153.5825
G01 X33.7547 Y-153.5861
G01 X33.7693 Y-153.5883
G01 X33.7840 Y-153.5890
G01 X35.4340 Y-153.5890
G01 X35.4487 Y-153.5883
G01 X35.4633 Y-153.5861
G01 X35.4775 Y-153.5825
G01 X35.4914 Y-153.5776
G01 X35.5047 Y-153.5713
G01 X35.5173 Y-153.5637
G01 X35.5292 Y-153.5550
G01 X35.5401 Y-153.5451
G01 X35.5500 Y-153.5342
G01 X35.5587 Y-153.5223
G01 X35.5663 Y-153.5097
G01 X35.5726 Y-153.4964
G01 X35.5775 Y-153.4825
G01 X35.5811 Y-153.4683
G01 X35.5833 Y-153.4537
G01 X35.5840 Y-153.4390
G01 X35.5840 Y-153.1390
G01 X35.5833 Y-153.1243
G01 X35.5811 Y-153.1097
G01 X35.5775 Y-153.0955
G01 X35.5726 Y-153.0816
G01 X35.5663 Y-153.0683
G01 X35.5587 Y-153.0557
G01 X35.5500 Y-153.0438
G01 X35.5401 Y-153.0329
G01 X35.5292 Y-153.0230
G01 X35.5173 Y-153.0143
G01 X35.5047 Y-153.0067
G01 X35.4914 Y-153.0004
G01 X35.4775 Y-152.9955
G01 X35.4633 Y-152.9919
G01 X35.4487 Y-152.9897
G01 X35.4340 Y-152.9890
G01 X35.2627 Y-152.9890
G01 X35.4761 Y-152.7756
G01 X40.9446 Y-152.7756
G01 X46.7827 Y-158.6138
G01 X46.8009 Y-158.6302
G01 X46.8206 Y-158.6449
G01 X46.8417 Y-158.6575
G01 X46.8639 Y-158.6680
G01 X46.8870 Y-158.6763
G01 X46.9108 Y-158.6822
G01 X46.9351 Y-158.6858
G01 X46.9596 Y-158.6870
G01 X56.8890 Y-158.6870
G01 X61.4161 Y-163.2141
G01 X61.4161 Y-163.5606
G01 X61.2662 Y-163.5606
G01 X61.2662 Y-164.8606
G01 X61.4161 Y-164.8606
G01 X61.4161 Y-165.8971
G01 X57.8913 Y-169.4219
G01 X57.3109 Y-169.4219
G01 X57.3082 Y-169.4182
G01 X57.2818 Y-169.3892
G01 X57.2528 Y-169.3628
G01 X57.2212 Y-169.3394
G01 X57.1876 Y-169.3192
G01 X57.1521 Y-169.3024
G01 X57.1151 Y-169.2892
G01 X57.0770 Y-169.2797
G01 X57.0382 Y-169.2739
G01 X56.9990 Y-169.2720
G01 X56.9598 Y-169.2739
G01 X56.9210 Y-169.2797
G01 X56.8829 Y-169.2892
G01 X56.8459 Y-169.3024
G01 X56.8104 Y-169.3192
G01 X56.7768 Y-169.3394
G01 X56.7452 Y-169.3628
G01 X56.7162 Y-169.3892
G01 X56.6898 Y-169.4182
G01 X56.6664 Y-169.4498
G01 X56.6462 Y-169.4834
G01 X56.6294 Y-169.5189
G01 X56.6162 Y-169.5559
G01 X56.6067 Y-169.5940
G01 X56.6009 Y-169.6328
G01 X56.5990 Y-169.6720
G01 X56.6009 Y-169.7112
G01 X56.6067 Y-169.7500
G01 X56.6162 Y-169.7881
G01 X56.6294 Y-169.8251
G01 X56.6462 Y-169.8606
G01 X56.6664 Y-169.8942
G01 X56.6898 Y-169.9258
G01 X56.7162 Y-169.9548
G01 X56.7452 Y-169.9812
G01 X56.7768 Y-170.0046
G01 X56.8104 Y-170.0248
G01 X56.8459 Y-170.0416
G01 X56.8829 Y-170.0548
G01 X56.9210 Y-170.0643
G01 X56.9598 Y-170.0701
G01 X56.9990 Y-170.0720
G01 X57.0382 Y-170.0701
G01 X57.0770 Y-170.0643
G01 X57.1151 Y-170.0548
G01 X57.1521 Y-170.0416
G01 X57.1876 Y-170.0248
G01 X57.2212 Y-170.0046
G01 X57.2528 Y-169.9812
G01 X57.2818 Y-169.9548
G01 X57.3082 Y-169.9258
G01 X57.3109 Y-169.9221
G01 X57.9949 Y-169.9221
G01 X58.0194 Y-169.9209
G01 X58.0437 Y-169.9173
G01 X58.0675 Y-169.9114
G01 X58.0906 Y-169.9031
G01 X58.1128 Y-169.8926
G01 X58.1339 Y-169.8800
G01 X58.1536 Y-169.8653
G01 X58.1718 Y-169.8489
G01 X61.8431 Y-166.1776
G01 X61.8595 Y-166.1594
G01 X61.8742 Y-166.1397
G01 X61.8868 Y-166.1186
G01 X61.8973 Y-166.0964
G01 X61.9056 Y-166.0733
G01 X61.9115 Y-166.0495
G01 X61.9151 Y-166.0252
G01 X61.9163 Y-166.0007
G01 X61.9163 Y-164.8606
G01 X62.0662 Y-164.8606
G01 X62.0662 Y-163.5606
G01 X61.9163 Y-163.5606
G01 X61.9163 Y-163.1105
G01 X61.9151 Y-163.0860
G01 X61.9115 Y-163.0617
G01 X61.9056 Y-163.0379
G01 X61.9002 Y-163.0230
G01 X61.9720 Y-163.0230
G01 X61.9941 Y-163.0219
G01 X62.0159 Y-163.0187
G01 X62.0373 Y-163.0133
G01 X62.0581 Y-163.0059
G01 X62.0781 Y-162.9964
G01 X62.0970 Y-162.9851
G01 X62.1147 Y-162.9719
G01 X62.1311 Y-162.9571
G01 X62.1459 Y-162.9407
G01 X62.1591 Y-162.9230
G01 X62.1704 Y-162.9041
G01 X62.1799 Y-162.8841
G01 X62.1873 Y-162.8633
G01 X62.1927 Y-162.8419
G01 X62.1959 Y-162.8201
G01 X62.1970 Y-162.7980
G01 X62.1970 Y-162.3480
G01 X62.1959 Y-162.3259
G01 X62.1927 Y-162.3041
G01 X62.1873 Y-162.2827
G01 X62.1799 Y-162.2619
G01 X62.1704 Y-162.2419
G01 X62.1591 Y-162.2230
G01 X62.1459 Y-162.2053
G01 X62.1311 Y-162.1889
G01 X62.1147 Y-162.1741
G01 X62.0970 Y-162.1609
G01 X62.0781 Y-162.1496
G01 X62.0581 Y-162.1401
G01 X62.0373 Y-162.1327
G01 X62.0159 Y-162.1273
G01 X61.9941 Y-162.1241
G01 X61.9720 Y-162.1230
G01 X61.4720 Y-162.1230
G01 X61.4499 Y-162.1241
G01 X61.4281 Y-162.1273
G01 X61.4067 Y-162.1327
G01 X61.3859 Y-162.1401
G01 X61.3659 Y-162.1496
G01 X61.3470 Y-162.1609
G01 X61.3293 Y-162.1741
G01 X61.3129 Y-162.1889
G01 X61.2981 Y-162.2053
G01 X61.2849 Y-162.2230
G01 X61.2736 Y-162.2419
G01 X61.2641 Y-162.2619
G01 X61.2567 Y-162.2827
G01 X61.2513 Y-162.3041
G01 X61.2481 Y-162.3259
G01 X61.2475 Y-162.3381
G01 X58.5296 Y-159.6201
G01 X67.2585 Y-159.6201
G01 X67.2830 Y-159.6189
G01 X67.3073 Y-159.6153
G01 X67.3311 Y-159.6094
G01 X67.3437 Y-159.6049
G01 X67.3542 Y-159.6011
G01 X67.3764 Y-159.5906
G01 X67.3975 Y-159.5780
G01 X67.4172 Y-159.5633
G01 X67.4354 Y-159.5469
G01 X69.3041 Y-157.6781
G01 X71.9340 Y-157.6781
G01 X71.9585 Y-157.6769
G01 X71.9828 Y-157.6733
G01 X72.0066 Y-157.6674
G01 X72.0297 Y-157.6591
G01 X72.0519 Y-157.6486
G01 X72.0730 Y-157.6360
G01 X72.0927 Y-157.6213
G01 X72.1109 Y-157.6049
G01 X72.5669 Y-157.1489
G01 X72.5833 Y-157.1307
G01 X72.5980 Y-157.1110
G01 X72.6106 Y-157.0899
G01 X72.6211 Y-157.0677
G01 X72.6294 Y-157.0446
G01 X72.6353 Y-157.0208
G01 X72.6389 Y-156.9965
G01 X72.6401 Y-156.9720
G01 X72.6401 Y-154.9400
G01 X72.6389 Y-154.9155
G01 X72.6353 Y-154.8912
G01 X72.6294 Y-154.8674
G01 X72.6211 Y-154.8443
G01 X72.6106 Y-154.8221
G01 X72.5980 Y-154.8010
G01 X72.5833 Y-154.7813
G01 X72.5669 Y-154.7631
G01 X72.5487 Y-154.7467
G01 X72.5290 Y-154.7320
G01 X72.5079 Y-154.7194
G01 X72.4857 Y-154.7089
G01 X72.4626 Y-154.7006
G01 X72.4388 Y-154.6947
G01 X72.4145 Y-154.6911
G01 X72.3900 Y-154.6899
G01 X72.3655 Y-154.6911
G01 X72.3412 Y-154.6947
G01 X72.3174 Y-154.7006
G01 X72.2943 Y-154.7089
G01 X72.2721 Y-154.7194
G01 X72.2510 Y-154.7320
G01 X72.2313 Y-154.7467
G01 X72.2131 Y-154.7631
G01 X72.1967 Y-154.7813
G01 X72.1820 Y-154.8010
G01 X72.1694 Y-154.8221
G01 X72.1589 Y-154.8443
G01 X72.1506 Y-154.8674
G01 X72.1447 Y-154.8912
G01 X72.1411 Y-154.9155
G01 X72.1399 Y-154.9400
G01 X72.1399 Y-156.8684
G01 X71.8304 Y-157.1779
G01 X69.2005 Y-157.1779
G01 X69.1760 Y-157.1791
G01 X69.1517 Y-157.1827
G01 X69.1279 Y-157.1886
G01 X69.1048 Y-157.1969
G01 X69.0826 Y-157.2074
G01 X69.0616 Y-157.2200
G01 X69.0418 Y-157.2347
G01 X69.0237 Y-157.2511
G01 X67.1549 Y-159.1199
G01 X58.0540 Y-159.1199
G01 X58.0305 Y-159.1210
G01 X57.1694 Y-158.2599
G01 X57.1512 Y-158.2435
G01 X57.1315 Y-158.2288
G01 X57.1104 Y-158.2162
G01 X57.0882 Y-158.2057
G01 X57.0651 Y-158.1974
G01 X57.0413 Y-158.1915
G01 X57.0170 Y-158.1879
G01 X56.9925 Y-158.1867
G01 X47.0632 Y-158.1868
G01 X41.2251 Y-152.3486
G01 X41.2069 Y-152.3322
G01 X41.1872 Y-152.3175
G01 X41.1661 Y-152.3049
G01 X41.1439 Y-152.2944
G01 X41.1208 Y-152.2861
G01 X41.0970 Y-152.2802
G01 X41.0727 Y-152.2766
G01 X41.0482 Y-152.2754
G01 X35.4761 Y-152.2754
G01 X35.4291 Y-152.2284
G01 X35.4291 Y-152.1115
G01 X35.4479 Y-152.1087
G01 X35.4693 Y-152.1033
G01 X35.4901 Y-152.0959
G01 X35.5101 Y-152.0864
G01 X35.5290 Y-152.0751
G01 X35.5467 Y-152.0619
G01 X35.5631 Y-152.0471
G01 X35.5779 Y-152.0307
G01 X35.5911 Y-152.0130
G01 X35.6024 Y-151.9941
G01 X35.6119 Y-151.9741
G01 X35.6193 Y-151.9533
G01 X35.6247 Y-151.9319
G01 X35.6279 Y-151.9101
G01 X35.6290 Y-151.8880
G01 X35.6290 Y-151.3880
G01 X35.6279 Y-151.3659
G01 X35.6247 Y-151.3441
G01 X35.6193 Y-151.3227
G01 X35.6119 Y-151.3019
G01 X35.6024 Y-151.2819
G01 X35.5911 Y-151.2630
G01 X35.5779 Y-151.2453
G01 X35.5631 Y-151.2289
G01 X35.5467 Y-151.2141
G01 X35.5290 Y-151.2009
G01 X35.5101 Y-151.1896
G01 X35.4901 Y-151.1801
G01 X35.4693 Y-151.1727
G01 X35.4479 Y-151.1673
G01 X35.4261 Y-151.1641
G01 X35.4040 Y-151.1630
G01 X34.9540 Y-151.1630
G01 X34.9319 Y-151.1641
G01 X34.9101 Y-151.1673
G01 X34.8887 Y-151.1727
G01 X34.8679 Y-151.1801
G01 X34.8479 Y-151.1896
G01 X34.8290 Y-151.2009
G01 X34.8113 Y-151.2141
G01 X34.7949 Y-151.2289
G01 X34.7801 Y-151.2453
G01 X34.7669 Y-151.2630
G01 X34.7556 Y-151.2819
G01 X34.7461 Y-151.3019
G01 X34.7387 Y-151.3227
G01 X34.7333 Y-151.3441
G01 X34.7301 Y-151.3659
G01 X34.7290 Y-151.3880
G01 X34.7290 Y-151.8880
G01 X34.7301 Y-151.9101
G01 X34.7333 Y-151.9319
G01 X34.7387 Y-151.9533
G01 X34.7461 Y-151.9741
G01 X34.7556 Y-151.9941
G01 X34.7669 Y-152.0130
G01 X34.7801 Y-152.0307
G01 X34.7949 Y-152.0471
G01 X34.8113 Y-152.0619
G01 X34.8290 Y-152.0751
G01 X34.8479 Y-152.0864
G01 X34.8679 Y-152.0959
G01 X34.8887 Y-152.1033
G01 X34.9101 Y-152.1087
G01 X34.9289 Y-152.1115
G01 X34.9289 Y-152.3320
G01 X34.9301 Y-152.3565
G01 X34.9337 Y-152.3808
G01 X34.9396 Y-152.4046
G01 X34.9479 Y-152.4277
G01 X34.9584 Y-152.4499
G01 X34.9710 Y-152.4710
G01 X34.9857 Y-152.4907
G01 X35.0021 Y-152.5089
G01 X35.0188 Y-152.5255
G01 X34.5553 Y-152.9890
G01 X33.7840 Y-152.9890
G01 X33.7693 Y-152.9897
G01 X33.7547 Y-152.9919
G01 X33.7405 Y-152.9955
G01 X33.7266 Y-153.0004
G01 X33.7133 Y-153.0067
G01 X33.7007 Y-153.0143
G01 X33.6888 Y-153.0230
G01 X33.6779 Y-153.0329
G01 X33.6680 Y-153.0438
G01 X33.6593 Y-153.0557
G01 X33.6517 Y-153.0683
G01 X33.6454 Y-153.0816
G01 X33.6405 Y-153.0955
G01 X33.6369 Y-153.1097
G01 X33.6347 Y-153.1243
G01 X33.6340 Y-153.1390
G00 Z2.0000
G00 X31.8135 Y-157.8708
G01 F60.00
G01 Z-2.4000
G01 F120.00
G01 X31.8674 Y-157.9516
G01 X31.9324 Y-158.0166
G01 X32.0132 Y-158.0705
G01 X32.1085 Y-158.0895
G01 X35.7079 Y-158.0895
G01 X35.7296 Y-158.0886
G01 X35.7618 Y-158.0857
G01 X35.7930 Y-158.0941
G01 X35.8142 Y-158.0988
G01 X35.8460 Y-158.1044
G01 X35.8596 Y-158.1093
G01 X35.8727 Y-158.1154
G01 X35.8992 Y-158.1340
G01 X35.9175 Y-158.1456
G01 X35.9455 Y-158.1618
G01 X35.9662 Y-158.1866
G01 X35.9809 Y-158.2026
G01 X36.2804 Y-158.5021
G01 X36.2964 Y-158.5168
G01 X36.3212 Y-158.5375
G01 X36.3373 Y-158.5655
G01 X36.3490 Y-158.5838
G01 X36.3676 Y-158.6103
G01 X36.3737 Y-158.6234
G01 X36.3786 Y-158.6370
G01 X36.3842 Y-158.6688
G01 X36.3889 Y-158.6900
G01 X36.3973 Y-158.7212
G01 X36.3944 Y-158.7534
G01 X36.3935 Y-158.7751
G01 X36.3935 Y-163.8725
G01 X36.4125 Y-163.9678
G01 X36.4664 Y-164.0486
G01 X38.7874 Y-166.3696
G01 X38.8035 Y-166.3842
G01 X38.8282 Y-166.4050
G01 X38.8444 Y-166.4330
G01 X38.8560 Y-166.4513
G01 X38.8746 Y-166.4778
G01 X38.8807 Y-166.4909
G01 X38.8856 Y-166.5044
G01 X38.8912 Y-166.5362
G01 X38.8959 Y-166.5574
G01 X38.9043 Y-166.5887
G01 X38.9014 Y-166.6208
G01 X38.9005 Y-166.6425
G01 X38.9005 Y-174.9769
G01 X38.9014 Y-174.9986
G01 X38.9043 Y-175.0308
G01 X38.8959 Y-175.0620
G01 X38.8912 Y-175.0832
G01 X38.8856 Y-175.1150
G01 X38.8806 Y-175.1286
G01 X38.8746 Y-175.1417
G01 X38.8560 Y-175.1682
G01 X38.8444 Y-175.1865
G01 X38.8282 Y-175.2145
G01 X38.8046 Y-175.2468
G01 X38.7710 Y-175.3379
G01 X38.7748 Y-175.4350
G01 X38.8155 Y-175.5232
G01 X38.8868 Y-175.5892
G01 X38.9780 Y-175.6228
G01 X39.0193 Y-175.6294
G01 X39.1323 Y-175.6869
G01 X39.2221 Y-175.7767
G01 X39.2295 Y-175.7869
G01 X39.2548 Y-175.8166
G01 X39.3356 Y-175.8705
G01 X39.4309 Y-175.8895
G01 X43.9865 Y-175.8895
G01 X44.0447 Y-175.8826
G01 X44.1329 Y-175.8419
G01 X44.1467 Y-175.8319
G01 X44.2597 Y-175.7744
G01 X44.3535 Y-175.7595
G01 X44.9665 Y-175.7595
G01 X45.0603 Y-175.7744
G01 X45.1908 Y-175.8408
G01 X45.1912 Y-175.8400
G01 X45.2124 Y-175.8519
G01 X45.3077 Y-175.8708
G01 X45.4030 Y-175.8519
G01 X45.4838 Y-175.7979
G01 X45.6021 Y-175.6796
G01 X45.6560 Y-175.5988
G01 X45.6750 Y-175.5035
G01 X45.6750 Y-171.3451
G01 X45.6691 Y-171.2912
G01 X45.6300 Y-171.2023
G01 X45.5598 Y-171.1351
G01 X45.4692 Y-171.0999
G01 X45.4464 Y-171.0958
G01 X45.4329 Y-171.0909
G01 X45.4198 Y-171.0848
G01 X45.3933 Y-171.0663
G01 X45.3750 Y-171.0546
G01 X45.3470 Y-171.0384
G01 X45.3262 Y-171.0137
G01 X45.3115 Y-170.9977
G01 X44.9223 Y-170.6085
G01 X44.9063 Y-170.5938
G01 X44.8816 Y-170.5730
G01 X44.8654 Y-170.5450
G01 X44.8537 Y-170.5267
G01 X44.8352 Y-170.5002
G01 X44.8291 Y-170.4872
G01 X44.8242 Y-170.4736
G01 X44.8185 Y-170.4418
G01 X44.8138 Y-170.4206
G01 X44.8055 Y-170.3894
G01 X44.8083 Y-170.3572
G01 X44.8093 Y-170.3355
G01 X44.8093 Y-169.7850
G01 X44.8083 Y-169.7633
G01 X44.8055 Y-169.7311
G01 X44.8139 Y-169.6999
G01 X44.8186 Y-169.6787
G01 X44.8242 Y-169.6469
G01 X44.8291 Y-169.6333
G01 X44.8352 Y-169.6203
G01 X44.8537 Y-169.5938
G01 X44.8654 Y-169.5755
G01 X44.8816 Y-169.5475
G01 X44.9063 Y-169.5267
G01 X44.9223 Y-169.5120
G01 X45.0676 Y-169.3668
G01 X45.1215 Y-169.2860
G01 X45.1405 Y-169.1907
G01 X45.1405 Y-168.9404
G01 X45.1215 Y-168.8451
G01 X45.0676 Y-168.7643
G01 X40.7267 Y-164.4234
G01 X40.7107 Y-164.4087
G01 X40.6859 Y-164.3880
G01 X40.6697 Y-164.3600
G01 X40.6581 Y-164.3416
G01 X40.6395 Y-164.3152
G01 X40.6334 Y-164.3021
G01 X40.6285 Y-164.2885
G01 X40.6229 Y-164.2567
G01 X40.6182 Y-164.2355
G01 X40.6098 Y-164.2043
G01 X40.6127 Y-164.1721
G01 X40.6136 Y-164.1504
G01 X40.6136 Y-162.0811
G01 X40.5946 Y-161.9858
G01 X40.5407 Y-161.9050
G01 X40.2509 Y-161.6153
G01 X40.2366 Y-161.6020
G01 X40.1518 Y-161.5545
G01 X40.1337 Y-161.5486
G01 X40.0207 Y-161.4911
G01 X39.9309 Y-161.4013
G01 X39.8734 Y-161.2883
G01 X39.8535 Y-161.1630
G01 X39.8734 Y-161.0377
G01 X39.9309 Y-160.9247
G01 X40.0207 Y-160.8349
G01 X40.1337 Y-160.7774
G01 X40.2590 Y-160.7575
G01 X40.3843 Y-160.7774
G01 X40.4973 Y-160.8349
G01 X40.5871 Y-160.9247
G01 X40.5927 Y-160.9358
G01 X40.6385 Y-160.9988
G01 X40.7193 Y-161.0528
G01 X40.8146 Y-161.0718
G01 X40.9099 Y-161.0528
G01 X40.9907 Y-160.9988
G01 X41.0446 Y-160.9181
G01 X41.0636 Y-160.8228
G01 X41.0636 Y-157.6662
G01 X41.0446 Y-157.5709
G01 X40.9907 Y-157.4902
G01 X40.9099 Y-157.4362
G01 X40.8146 Y-157.4172
G01 X40.7193 Y-157.4362
G01 X40.6385 Y-157.4901
G01 X40.5905 Y-157.5382
G01 X40.4854 Y-157.5896
G01 X40.4173 Y-157.5995
G01 X38.7007 Y-157.5995
G01 X38.6326 Y-157.5896
G01 X38.5275 Y-157.5382
G01 X38.4448 Y-157.4555
G01 X38.3934 Y-157.3504
G01 X38.3835 Y-157.2823
G01 X38.3835 Y-156.9157
G01 X38.3856 Y-156.8981
G01 X38.3751 Y-156.8016
G01 X38.3283 Y-156.7164
G01 X38.2999 Y-156.6824
G01 X38.2852 Y-156.6664
G01 X38.0466 Y-156.4278
G01 X38.0306 Y-156.4131
G01 X38.0058 Y-156.3924
G01 X37.9896 Y-156.3644
G01 X37.9780 Y-156.3461
G01 X37.9594 Y-156.3196
G01 X37.9533 Y-156.3065
G01 X37.9484 Y-156.2929
G01 X37.9428 Y-156.2611
G01 X37.9381 Y-156.2399
G01 X37.9297 Y-156.2087
G01 X37.9326 Y-156.1765
G01 X37.9335 Y-156.1548
G01 X37.9335 Y-154.2332
G01 X37.9326 Y-154.2115
G01 X37.9297 Y-154.1793
G01 X37.9381 Y-154.1481
G01 X37.9428 Y-154.1269
G01 X37.9484 Y-154.0950
G01 X37.9533 Y-154.0815
G01 X37.9594 Y-154.0684
G01 X37.9780 Y-154.0419
G01 X37.9896 Y-154.0236
G01 X38.0058 Y-153.9956
G01 X38.0306 Y-153.9749
G01 X38.0466 Y-153.9602
G01 X38.2852 Y-153.7216
G01 X38.2999 Y-153.7056
G01 X38.3283 Y-153.6716
G01 X38.3372 Y-153.6604
G01 X38.3790 Y-153.5727
G01 X38.3837 Y-153.4813
G01 X38.3842 Y-153.4812
G01 X38.3835 Y-153.4723
G01 X38.3835 Y-153.2250
G01 X38.3645 Y-153.1297
G01 X38.3106 Y-153.0489
G01 X38.2298 Y-152.9950
G01 X38.1345 Y-152.9760
G01 X36.0335 Y-152.9760
G01 X35.9382 Y-152.9950
G01 X35.8574 Y-153.0489
G01 X35.8035 Y-153.1297
G01 X35.7845 Y-153.2250
G01 X35.7845 Y-153.4723
G01 X35.7746 Y-153.5404
G01 X35.7232 Y-153.6455
G01 X35.6259 Y-153.7428
G01 X35.6273 Y-153.7442
G01 X35.5921 Y-153.7793
G01 X35.5522 Y-153.8679
G01 X35.5492 Y-153.9650
G01 X35.5835 Y-154.0559
G01 X35.6280 Y-154.1031
G01 X35.6259 Y-154.1052
G01 X35.7232 Y-154.2025
G01 X35.7746 Y-154.3076
G01 X35.7845 Y-154.3757
G01 X35.7845 Y-154.7423
G01 X35.7746 Y-154.8104
G01 X35.7232 Y-154.9155
G01 X35.6259 Y-155.0128
G01 X35.6273 Y-155.0142
G01 X35.5921 Y-155.0493
G01 X35.5522 Y-155.1379
G01 X35.5492 Y-155.2350
G01 X35.5835 Y-155.3259
G01 X35.6280 Y-155.3731
G01 X35.6259 Y-155.3752
G01 X35.7232 Y-155.4725
G01 X35.7746 Y-155.5776
G01 X35.7845 Y-155.6457
G01 X35.7845 Y-156.0123
G01 X35.7746 Y-156.0804
G01 X35.7232 Y-156.1855
G01 X35.6405 Y-156.2682
G01 X35.5354 Y-156.3196
G01 X35.4673 Y-156.3295
G01 X33.7507 Y-156.3295
G01 X33.6826 Y-156.3196
G01 X33.5775 Y-156.2682
G01 X33.5367 Y-156.2274
G01 X33.4560 Y-156.1735
G01 X33.3607 Y-156.1545
G01 X32.0327 Y-156.1545
G01 X31.9682 Y-156.1630
G01 X31.8811 Y-156.2060
G01 X31.8170 Y-156.2790
G01 X31.7858 Y-156.3710
G01 X31.7922 Y-156.4679
G01 X31.7983 Y-156.4907
G01 X31.7954 Y-156.5229
G01 X31.7945 Y-156.5446
G01 X31.7945 Y-157.7755
G01 X31.8135 Y-157.8708
G00 Z2.0000
G00 X38.1339 Y-156.1799
G01 F60.00
G01 Z-2.4000
G01 F120.00
G01 X38.1345 Y-156.1922
G01 X38.1363 Y-156.2043
G01 X38.1393 Y-156.2162
G01 X38.1435 Y-156.2278
G01 X38.1487 Y-156.2389
G01 X38.1550 Y-156.2494
G01 X38.1623 Y-156.2592
G01 X38.1706 Y-156.2683
G01 X38.4447 Y-156.5424
G01 X38.4538 Y-156.5507
G01 X38.4636 Y-156.5580
G01 X38.4741 Y-156.5643
G01 X38.4852 Y-156.5695
G01 X38.4968 Y-156.5737
G01 X38.5087 Y-156.5767
G01 X38.5208 Y-156.5785
G01 X38.5331 Y-156.5791
G01 X40.5993 Y-156.5791
G01 X41.2640 Y-157.2438
G01 X41.2640 Y-163.9891
G01 X41.2646 Y-164.0014
G01 X41.2664 Y-164.0135
G01 X41.2694 Y-164.0254
G01 X41.2736 Y-164.0370
G01 X41.2788 Y-164.0481
G01 X41.2851 Y-164.0586
G01 X41.2924 Y-164.0684
G01 X41.3007 Y-164.0775
G01 X46.7754 Y-169.5523
G01 X46.7754 Y-177.0755
G01 X46.7760 Y-177.0878
G01 X46.7778 Y-177.0999
G01 X46.7808 Y-177.1118
G01 X46.7850 Y-177.1234
G01 X46.7902 Y-177.1345
G01 X46.7965 Y-177.1450
G01 X46.8038 Y-177.1548
G01 X46.8121 Y-177.1639
G01 X47.0517 Y-177.4035
G01 X47.0389 Y-177.4304
G01 X47.0257 Y-177.4674
G01 X47.0162 Y-177.5055
G01 X47.0104 Y-177.5443
G01 X47.0085 Y-177.5835
G01 X47.0104 Y-177.6227
G01 X47.0162 Y-177.6615
G01 X47.0257 Y-177.6996
G01 X47.0389 Y-177.7366
G01 X47.0557 Y-177.7721
G01 X47.0759 Y-177.8057
G01 X47.0993 Y-177.8373
G01 X47.1257 Y-177.8663
G01 X47.1547 Y-177.8927
G01 X47.1863 Y-177.9161
G01 X47.2199 Y-177.9363
G01 X47.2554 Y-177.9531
G01 X47.2924 Y-177.9663
G01 X47.3305 Y-177.9758
G01 X47.3693 Y-177.9816
G01 X47.4085 Y-177.9835
G01 X47.4477 Y-177.9816
G01 X47.4865 Y-177.9758
G01 X47.5246 Y-177.9663
G01 X47.5616 Y-177.9531
G01 X47.5971 Y-177.9363
G01 X47.6307 Y-177.9161
G01 X47.6623 Y-177.8927
G01 X47.6913 Y-177.8663
G01 X47.7177 Y-177.8373
G01 X47.7411 Y-177.8057
G01 X47.7613 Y-177.7721
G01 X47.7781 Y-177.7366
G01 X47.7913 Y-177.6996
G01 X47.8008 Y-177.6615
G01 X47.8066 Y-177.6227
G01 X47.8085 Y-177.5835
G01 X47.8066 Y-177.5443
G01 X47.8008 Y-177.5055
G01 X47.7913 Y-177.4674
G01 X47.7781 Y-177.4304
G01 X47.7613 Y-177.3949
G01 X47.7411 Y-177.3613
G01 X47.7177 Y-177.3297
G01 X47.6913 Y-177.3007
G01 X47.6623 Y-177.2743
G01 X47.6307 Y-177.2509
G01 X47.5971 Y-177.2307
G01 X47.5616 Y-177.2139
G01 X47.5246 Y-177.2007
G01 X47.4865 Y-177.1912
G01 X47.4477 Y-177.1854
G01 X47.4085 Y-177.1835
G01 X47.3693 Y-177.1854
G01 X47.3305 Y-177.1912
G01 X47.2924 Y-177.2007
G01 X47.2554 Y-177.2139
G01 X47.2285 Y-177.2267
G01 X47.0256 Y-177.0237
G01 X47.0256 Y-169.5005
G01 X47.0250 Y-169.4882
G01 X47.0232 Y-169.4761
G01 X47.0202 Y-169.4642
G01 X47.0160 Y-169.4526
G01 X47.0108 Y-169.4415
G01 X47.0045 Y-169.4310
G01 X46.9972 Y-169.4212
G01 X46.9889 Y-169.4121
G01 X41.5142 Y-163.9373
G01 X41.5142 Y-157.1920
G01 X41.5136 Y-157.1797
G01 X41.5118 Y-157.1676
G01 X41.5088 Y-157.1557
G01 X41.5046 Y-157.1441
G01 X41.4994 Y-157.1330
G01 X41.4931 Y-157.1225
G01 X41.4858 Y-157.1127
G01 X41.4775 Y-157.1036
G01 X40.7395 Y-156.3656
G01 X40.7304 Y-156.3573
G01 X40.7206 Y-156.3500
G01 X40.7101 Y-156.3437
G01 X40.6990 Y-156.3385
G01 X40.6874 Y-156.3343
G01 X40.6755 Y-156.3313
G01 X40.6634 Y-156.3295
G01 X40.6511 Y-156.3289
G01 X38.5849 Y-156.3289
G01 X38.3841 Y-156.1281
G01 X38.3841 Y-154.2599
G01 X38.5849 Y-154.0591
G01 X38.9140 Y-154.0591
G01 X38.9263 Y-154.0585
G01 X38.9384 Y-154.0567
G01 X38.9503 Y-154.0537
G01 X38.9619 Y-154.0495
G01 X38.9730 Y-154.0443
G01 X38.9835 Y-154.0380
G01 X38.9933 Y-154.0307
G01 X39.0024 Y-154.0224
G01 X39.4359 Y-153.5890
G01 X40.3840 Y-153.5890
G01 X40.3987 Y-153.5883
G01 X40.4133 Y-153.5861
G01 X40.4275 Y-153.5825
G01 X40.4414 Y-153.5776
G01 X40.4547 Y-153.5713
G01 X40.4673 Y-153.5637
G01 X40.4792 Y-153.5550
G01 X40.4901 Y-153.5451
G01 X40.5000 Y-153.5342
G01 X40.5087 Y-153.5223
G01 X40.5163 Y-153.5097
G01 X40.5226 Y-153.4964
G01 X40.5275 Y-153.4825
G01 X40.5311 Y-153.4683
G01 X40.5333 Y-153.4537
G01 X40.5340 Y-153.4390
G01 X40.5340 Y-153.1390
G01 X40.5333 Y-153.1243
G01 X40.5311 Y-153.1097
G01 X40.5275 Y-153.0955
G01 X40.5226 Y-153.0816
G01 X40.5163 Y-153.0683
G01 X40.5087 Y-153.0557
G01 X40.5000 Y-153.0438
G01 X40.4901 Y-153.0329
G01 X40.4792 Y-153.0230
G01 X40.4673 Y-153.0143
G01 X40.4547 Y-153.0067
G01 X40.4414 Y-153.0004
G01 X40.4275 Y-152.9955
G01 X40.4133 Y-152.9919
G01 X40.3987 Y-152.9897
G01 X40.3840 Y-152.9890
G01 X38.7340 Y-152.9890
G01 X38.7193 Y-152.9897
G01 X38.7047 Y-152.9919
G01 X38.6905 Y-152.9955
G01 X38.6766 Y-153.0004
G01 X38.6633 Y-153.0067
G01 X38.6507 Y-153.0143
G01 X38.6388 Y-153.0230
G01 X38.6279 Y-153.0329
G01 X38.6180 Y-153.0438
G01 X38.6093 Y-153.0557
G01 X38.6017 Y-153.0683
G01 X38.5954 Y-153.0816
G01 X38.5905 Y-153.0955
G01 X38.5869 Y-153.1097
G01 X38.5847 Y-153.1243
G01 X38.5840 Y-153.1390
G01 X38.5840 Y-153.4390
G01 X38.5847 Y-153.4537
G01 X38.5869 Y-153.4683
G01 X38.5905 Y-153.4825
G01 X38.5954 Y-153.4964
G01 X38.6017 Y-153.5097
G01 X38.6093 Y-153.5223
G01 X38.6180 Y-153.5342
G01 X38.6279 Y-153.5451
G01 X38.6388 Y-153.5550
G01 X38.6507 Y-153.5637
G01 X38.6633 Y-153.5713
G01 X38.6766 Y-153.5776
G01 X38.6905 Y-153.5825
G01 X38.7047 Y-153.5861
G01 X38.7193 Y-153.5883
G01 X38.7340 Y-153.5890
G01 X39.0821 Y-153.5890
G01 X38.8622 Y-153.8089
G01 X38.5331 Y-153.8089
G01 X38.5208 Y-153.8095
G01 X38.5087 Y-153.8113
G01 X38.4968 Y-153.8143
G01 X38.4852 Y-153.8185
G01 X38.4741 Y-153.8237
G01 X38.4636 Y-153.8300
G01 X38.4538 Y-153.8373
G01 X38.4447 Y-153.8456
G01 X38.1706 Y-154.1197
G01 X38.1623 Y-154.1288
G01 X38.1550 Y-154.1386
G01 X38.1487 Y-154.1491
G01 X38.1435 Y-154.1602
G01 X38.1393 Y-154.1718
G01 X38.1363 Y-154.1837
G01 X38.1345 Y-154.1958
G01 X38.1339 Y-154.2081
G01 X38.1339 Y-156.1799
G00 Z2.0000
G00 X38.5840 Y-155.6790
G01 F60.00
G01 Z-2.4000
G01 F120.00
G01 X38.5840 Y-155.9790
G01 X38.5847 Y-155.9937
G01 X38.5869 Y-156.0083
G01 X38.5905 Y-156.0225
G01 X38.5954 Y-156.0364
G01 X38.6017 Y-156.0497
G01 X38.6093 Y-156.0623
G01 X38.6180 Y-156.0742
G01 X38.6279 Y-156.0851
G01 X38.6388 Y-156.0950
G01 X38.6507 Y-156.1037
G01 X38.6633 Y-156.1113
G01 X38.6766 Y-156.1176
G01 X38.6905 Y-156.1225
G01 X38.7047 Y-156.1261
G01 X38.7193 Y-156.1283
G01 X38.7340 Y-156.1290
G01 X40.3840 Y-156.1290
G01 X40.3987 Y-156.1283
G01 X40.4133 Y-156.1261
G01 X40.4275 Y-156.1225
G01 X40.4414 Y-156.1176
G01 X40.4547 Y-156.1113
G01 X40.4673 Y-156.1037
G01 X40.4792 Y-156.0950
G01 X40.4901 Y-156.0851
G01 X40.5000 Y-156.0742
G01 X40.5087 Y-156.0623
G01 X40.5163 Y-156.0497
G01 X40.5226 Y-156.0364
G01 X40.5275 Y-156.0225
G01 X40.5311 Y-156.0083
G01 X40.5333 Y-155.9937
G01 X40.5340 Y-155.9790
G01 X40.5340 Y-155.9541
G01 X40.6107 Y-155.9541
G01 X41.7140 Y-157.0574
G01 X41.7140 Y-163.8027
G01 X41.7146 Y-163.8150
G01 X41.7164 Y-163.8271
G01 X41.7194 Y-163.8390
G01 X41.7236 Y-163.8506
G01 X41.7288 Y-163.8617
G01 X41.7351 Y-163.8722
G01 X41.7424 Y-163.8820
G01 X41.7507 Y-163.8911
G01 X47.1868 Y-169.3272
G01 X47.1959 Y-169.3355
G01 X47.2057 Y-169.3428
G01 X47.2162 Y-169.3491
G01 X47.2273 Y-169.3543
G01 X47.2389 Y-169.3585
G01 X47.2508 Y-169.3615
G01 X47.2629 Y-169.3633
G01 X47.2752 Y-169.3639
G01 X47.6483 Y-169.3639
G01 X47.6628 Y-169.3802
G01 X47.6773 Y-169.3934
G01 X47.6931 Y-169.4051
G01 X47.7099 Y-169.4152
G01 X47.7277 Y-169.4236
G01 X47.7461 Y-169.4302
G01 X47.7652 Y-169.4350
G01 X47.7846 Y-169.4378
G01 X47.8042 Y-169.4388
G01 X47.8238 Y-169.4378
G01 X47.8432 Y-169.4350
G01 X47.8623 Y-169.4302
G01 X47.8807 Y-169.4236
G01 X47.8985 Y-169.4152
G01 X47.9153 Y-169.4051
G01 X47.9311 Y-169.3934
G01 X47.9456 Y-169.3802
G01 X47.9588 Y-169.3657
G01 X47.9705 Y-169.3499
G01 X47.9806 Y-169.3331
G01 X47.9890 Y-169.3153
G01 X47.9956 Y-169.2969
G01 X48.0004 Y-169.2778
G01 X48.0032 Y-169.2584
G01 X48.0042 Y-169.2388
G01 X48.0032 Y-169.2192
G01 X48.0004 Y-169.1998
G01 X47.9956 Y-169.1807
G01 X47.9890 Y-169.1623
G01 X47.9806 Y-169.1445
G01 X47.9705 Y-169.1277
G01 X47.9588 Y-169.1119
G01 X47.9456 Y-169.0974
G01 X47.9311 Y-169.0842
G01 X47.9153 Y-169.0725
G01 X47.8985 Y-169.0624
G01 X47.8807 Y-169.0540
G01 X47.8623 Y-169.0474
G01 X47.8432 Y-169.0426
G01 X47.8238 Y-169.0398
G01 X47.8042 Y-169.0388
G01 X47.7846 Y-169.0398
G01 X47.7652 Y-169.0426
G01 X47.7461 Y-169.0474
G01 X47.7277 Y-169.0540
G01 X47.7099 Y-169.0624
G01 X47.6931 Y-169.0725
G01 X47.6773 Y-169.0842
G01 X47.6628 Y-169.0974
G01 X47.6483 Y-169.1137
G01 X47.3270 Y-169.1137
G01 X41.9642 Y-163.7509
G01 X41.9642 Y-157.0056
G01 X41.9636 Y-156.9933
G01 X41.9618 Y-156.9812
G01 X41.9588 Y-156.9693
G01 X41.9546 Y-156.9577
G01 X41.9494 Y-156.9466
G01 X41.9431 Y-156.9361
G01 X41.9358 Y-156.9263
G01 X41.9275 Y-156.9172
G01 X40.7509 Y-155.7406
G01 X40.7418 Y-155.7323
G01 X40.7320 Y-155.7250
G01 X40.7215 Y-155.7187
G01 X40.7104 Y-155.7135
G01 X40.6988 Y-155.7093
G01 X40.6869 Y-155.7063
G01 X40.6748 Y-155.7045
G01 X40.6625 Y-155.7039
G01 X40.5340 Y-155.7039
G01 X40.5340 Y-155.6790
G01 X40.5333 Y-155.6643
G01 X40.5311 Y-155.6497
G01 X40.5275 Y-155.6355
G01 X40.5226 Y-155.6216
G01 X40.5163 Y-155.6083
G01 X40.5087 Y-155.5957
G01 X40.5000 Y-155.5838
G01 X40.4901 Y-155.5729
G01 X40.4792 Y-155.5630
G01 X40.4673 Y-155.5543
G01 X40.4547 Y-155.5467
G01 X40.4414 Y-155.5404
G01 X40.4275 Y-155.5355
G01 X40.4133 Y-155.5319
G01 X40.3987 Y-155.5297
G01 X40.3840 Y-155.5290
G01 X38.7340 Y-155.5290
G01 X38.7193 Y-155.5297
G01 X38.7047 Y-155.5319
G01 X38.6905 Y-155.5355
G01 X38.6766 Y-155.5404
G01 X38.6633 Y-155.5467
G01 X38.6507 Y-155.5543
G01 X38.6388 Y-155.5630
G01 X38.6279 Y-155.5729
G01 X38.6180 Y-155.5838
G01 X38.6093 Y-155.5957
G01 X38.6017 Y-155.6083
G01 X38.5954 Y-155.6216
G01 X38.5905 Y-155.6355
G01 X38.5869 Y-155.6497
G01 X38.5847 Y-155.6643
G01 X38.5840 Y-155.6790
G00 Z2.0000
G00 X38.5840 Y-154.4090
G01 F60.00
G01 Z-2.4000
G01 F120.00
G01 X38.5840 Y-154.7090
G01 X38.5847 Y-154.7237
G01 X38.5869 Y-154.7383
G01 X38.5905 Y-154.7525
G01 X38.5954 Y-154.7664
G01 X38.6017 Y-154.7797
G01 X38.6093 Y-154.7923
G01 X38.6180 Y-154.8042
G01 X38.6279 Y-154.8151
G01 X38.6388 Y-154.8250
G01 X38.6507 Y-154.8337
G01 X38.6633 Y-154.8413
G01 X38.6766 Y-154.8476
G01 X38.6905 Y-154.8525
G01 X38.7047 Y-154.8561
G01 X38.7193 Y-154.8583
G01 X38.7340 Y-154.8590
G01 X40.1520 Y-154.8590
G01 X42.1640 Y-156.8710
G01 X42.1640 Y-163.6163
G01 X42.1646 Y-163.6286
G01 X42.1664 Y-163.6407
G01 X42.1694 Y-163.6526
G01 X42.1736 Y-163.6642
G01 X42.1788 Y-163.6753
G01 X42.1851 Y-163.6858
G01 X42.1924 Y-163.6956
G01 X42.2007 Y-163.7047
G01 X46.5463 Y-168.0504
G01 X46.5554 Y-168.0586
G01 X46.5652 Y-168.0659
G01 X46.5758 Y-168.0722
G01 X46.5869 Y-168.0775
G01 X46.5984 Y-168.0816
G01 X46.6103 Y-168.0846
G01 X46.6225 Y-168.0864
G01 X46.6434 Y-168.0870
G01 X47.3009 Y-168.7444
G01 X47.3099 Y-168.7527
G01 X47.3198 Y-168.7600
G01 X47.3303 Y-168.7663
G01 X47.3414 Y-168.7715
G01 X47.3530 Y-168.7757
G01 X47.3649 Y-168.7787
G01 X47.3770 Y-168.7805
G01 X47.3893 Y-168.7811
G01 X48.3581 Y-168.7811
G01 X48.3726 Y-168.7974
G01 X48.3871 Y-168.8106
G01 X48.4029 Y-168.8223
G01 X48.4197 Y-168.8324
G01 X48.4375 Y-168.8408
G01 X48.4559 Y-168.8474
G01 X48.4750 Y-168.8522
G01 X48.4944 Y-168.8550
G01 X48.5140 Y-168.8560
G01 X48.5336 Y-168.8550
G01 X48.5530 Y-168.8522
G01 X48.5721 Y-168.8474
G01 X48.5905 Y-168.8408
G01 X48.6083 Y-168.8324
G01 X48.6251 Y-168.8223
G01 X48.6409 Y-168.8106
G01 X48.6554 Y-168.7974
G01 X48.6686 Y-168.7829
G01 X48.6803 Y-168.7671
G01 X48.6904 Y-168.7503
G01 X48.6988 Y-168.7325
G01 X48.7054 Y-168.7141
G01 X48.7102 Y-168.6950
G01 X48.7130 Y-168.6756
G01 X48.7140 Y-168.6560
G01 X48.7130 Y-168.6364
G01 X48.7102 Y-168.6170
G01 X48.7054 Y-168.5979
G01 X48.6988 Y-168.5795
G01 X48.6904 Y-168.5617
G01 X48.6803 Y-168.5449
G01 X48.6686 Y-168.5291
G01 X48.6554 Y-168.5146
G01 X48.6409 Y-168.5014
G01 X48.6251 Y-168.4897
G01 X48.6083 Y-168.4796
G01 X48.5905 Y-168.4712
G01 X48.5721 Y-168.4646
G01 X48.5530 Y-168.4598
G01 X48.5336 Y-168.4570
G01 X48.5140 Y-168.4560
G01 X48.4944 Y-168.4570
G01 X48.4750 Y-168.4598
G01 X48.4559 Y-168.4646
G01 X48.4375 Y-168.4712
G01 X48.4197 Y-168.4796
G01 X48.4029 Y-168.4897
G01 X48.3871 Y-168.5014
G01 X48.3726 Y-168.5146
G01 X48.3581 Y-168.5309
G01 X47.4411 Y-168.5309
G01 X46.7837 Y-167.8735
G01 X46.7746 Y-167.8653
G01 X46.7647 Y-167.8579
G01 X46.7542 Y-167.8516
G01 X46.7431 Y-167.8464
G01 X46.7315 Y-167.8423
G01 X46.7196 Y-167.8393
G01 X46.7075 Y-167.8375
G01 X46.6865 Y-167.8369
G01 X42.4142 Y-163.5645
G01 X42.4142 Y-156.8192
G01 X42.4136 Y-156.8069
G01 X42.4118 Y-156.7948
G01 X42.4088 Y-156.7829
G01 X42.4046 Y-156.7713
G01 X42.3994 Y-156.7602
G01 X42.3931 Y-156.7497
G01 X42.3858 Y-156.7399
G01 X42.3775 Y-156.7308
G01 X40.4749 Y-154.8281
G01 X40.4792 Y-154.8250
G01 X40.4901 Y-154.8151
G01 X40.5000 Y-154.8042
G01 X40.5087 Y-154.7923
G01 X40.5163 Y-154.7797
G01 X40.5226 Y-154.7664
G01 X40.5275 Y-154.7525
G01 X40.5311 Y-154.7383
G01 X40.5333 Y-154.7237
G01 X40.5340 Y-154.7090
G01 X40.5340 Y-154.4090
G01 X40.5333 Y-154.3943
G01 X40.5311 Y-154.3797
G01 X40.5275 Y-154.3655
G01 X40.5226 Y-154.3516
G01 X40.5163 Y-154.3383
G01 X40.5087 Y-154.3257
G01 X40.5000 Y-154.3138
G01 X40.4901 Y-154.3029
G01 X40.4792 Y-154.2930
G01 X40.4673 Y-154.2843
G01 X40.4547 Y-154.2767
G01 X40.4414 Y-154.2704
G01 X40.4275 Y-154.2655
G01 X40.4133 Y-154.2619
G01 X40.3987 Y-154.2597
G01 X40.3840 Y-154.2590
G01 X38.7340 Y-154.2590
G01 X38.7193 Y-154.2597
G01 X38.7047 Y-154.2619
G01 X38.6905 Y-154.2655
G01 X38.6766 Y-154.2704
G01 X38.6633 Y-154.2767
G01 X38.6507 Y-154.2843
G01 X38.6388 Y-154.2930
G01 X38.6279 Y-154.3029
G01 X38.6180 Y-154.3138
G01 X38.6093 Y-154.3257
G01 X38.6017 Y-154.3383
G01 X38.5954 Y-154.3516
G01 X38.5905 Y-154.3655
G01 X38.5869 Y-154.3797
G01 X38.5847 Y-154.3943
G01 X38.5840 Y-154.4090
G00 Z2.0000
G00 X40.5335 Y-154.0559
G01 F60.00
G01 Z-2.4000
G01 F120.00
G01 X40.5780 Y-154.1031
G01 X40.5759 Y-154.1052
G01 X40.6732 Y-154.2025
G01 X40.7246 Y-154.3076
G01 X40.7345 Y-154.3757
G01 X40.7345 Y-154.7011
G01 X40.7535 Y-154.7964
G01 X40.8074 Y-154.8772
G01 X42.5015 Y-156.5713
G01 X42.5176 Y-156.5860
G01 X42.5423 Y-156.6067
G01 X42.5585 Y-156.6347
G01 X42.5701 Y-156.6530
G01 X42.5887 Y-156.6795
G01 X42.5948 Y-156.6926
G01 X42.5997 Y-156.7062
G01 X42.6053 Y-156.7380
G01 X42.6100 Y-156.7592
G01 X42.6184 Y-156.7904
G01 X42.6155 Y-156.8226
G01 X42.6146 Y-156.8443
G01 X42.6146 Y-160.5953
G01 X42.6154 Y-160.6148
G01 X42.6417 Y-160.7083
G01 X42.7019 Y-160.7846
G01 X42.7867 Y-160.8321
G01 X42.8831 Y-160.8435
G01 X42.9766 Y-160.8171
G01 X43.0547 Y-160.7774
G01 X43.1800 Y-160.7575
G01 X43.3053 Y-160.7774
G01 X43.3482 Y-160.7992
G01 X43.3659 Y-160.8074
G01 X43.4612 Y-160.8263
G01 X43.5565 Y-160.8074
G01 X43.6373 Y-160.7534
G01 X44.9966 Y-159.3941
G01 X45.0505 Y-159.3133
G01 X45.0695 Y-159.2180
G01 X45.0695 Y-158.8475
G01 X45.0853 Y-158.7479
G01 X45.1465 Y-158.6278
G01 X45.2418 Y-158.5325
G01 X45.3619 Y-158.4713
G01 X45.4615 Y-158.4555
G01 X45.7400 Y-158.4555
G01 X45.8352 Y-158.4365
G01 X45.9160 Y-158.3826
G01 X45.9700 Y-158.3018
G01 X45.9890 Y-158.2065
G01 X45.9700 Y-158.1112
G01 X45.9160 Y-158.0304
G01 X41.1596 Y-153.2740
G01 X41.0788 Y-153.2200
G01 X40.9835 Y-153.2010
G01 X40.8882 Y-153.2200
G01 X40.8074 Y-153.2740
G01 X40.7535 Y-153.3548
G01 X40.7345 Y-153.4500
G01 X40.7345 Y-153.4723
G01 X40.7246 Y-153.5404
G01 X40.6732 Y-153.6455
G01 X40.5759 Y-153.7428
G01 X40.5773 Y-153.7442
G01 X40.5421 Y-153.7793
G01 X40.5022 Y-153.8679
G01 X40.4992 Y-153.9650
G01 X40.5335 Y-154.0559
G00 Z2.0000
G00 X38.5840 Y-156.9490
G01 F60.00
G01 Z-2.4000
G01 F120.00
G01 X38.5840 Y-157.2490
G01 X38.5847 Y-157.2637
G01 X38.5869 Y-157.2783
G01 X38.5905 Y-157.2925
G01 X38.5954 Y-157.3064
G01 X38.6017 Y-157.3197
G01 X38.6093 Y-157.3323
G01 X38.6180 Y-157.3442
G01 X38.6279 Y-157.3551
G01 X38.6388 Y-157.3650
G01 X38.6507 Y-157.3737
G01 X38.6633 Y-157.3813
G01 X38.6766 Y-157.3876
G01 X38.6905 Y-157.3925
G01 X38.7047 Y-157.3961
G01 X38.7193 Y-157.3983
G01 X38.7340 Y-157.3990
G01 X40.3840 Y-157.3990
G01 X40.3987 Y-157.3983
G01 X40.4133 Y-157.3961
G01 X40.4275 Y-157.3925
G01 X40.4414 Y-157.3876
G01 X40.4547 Y-157.3813
G01 X40.4673 Y-157.3737
G01 X40.4792 Y-157.3650
G01 X40.4901 Y-157.3551
G01 X40.5000 Y-157.3442
G01 X40.5087 Y-157.3323
G01 X40.5163 Y-157.3197
G01 X40.5226 Y-157.3064
G01 X40.5275 Y-157.2925
G01 X40.5311 Y-157.2783
G01 X40.5333 Y-157.2637
G01 X40.5340 Y-157.2490
G01 X40.5340 Y-156.9490
G01 X40.5333 Y-156.9343
G01 X40.5311 Y-156.9197
G01 X40.5275 Y-156.9055
G01 X40.5226 Y-156.8916
G01 X40.5163 Y-156.8783
G01 X40.5087 Y-156.8657
G01 X40.5000 Y-156.8538
G01 X40.4901 Y-156.8429
G01 X40.4792 Y-156.8330
G01 X40.4673 Y-156.8243
G01 X40.4547 Y-156.8167
G01 X40.4414 Y-156.8104
G01 X40.4275 Y-156.8055
G01 X40.4133 Y-156.8019
G01 X40.3987 Y-156.7997
G01 X40.3840 Y-156.7990
G01 X38.7340 Y-156.7990
G01 X38.7193 Y-156.7997
G01 X38.7047 Y-156.8019
G01 X38.6905 Y-156.8055
G01 X38.6766 Y-156.8104
G01 X38.6633 Y-156.8167
G01 X38.6507 Y-156.8243
G01 X38.6388 Y-156.8330
G01 X38.6279 Y-156.8429
G01 X38.6180 Y-156.8538
G01 X38.6093 Y-156.8657
G01 X38.6017 Y-156.8783
G01 X38.5954 Y-156.8916
G01 X38.5905 Y-156.9055
G01 X38.5869 Y-156.9197
G01 X38.5847 Y-156.9343
G01 X38.5840 Y-156.9490
G00 Z2.0000
G00 X42.9838 Y-161.2020
G01 F60.00
G01 Z-2.4000
G01 F120.00
G01 X42.9886 Y-161.2211
G01 X42.9952 Y-161.2395
G01 X43.0036 Y-161.2573
G01 X43.0137 Y-161.2741
G01 X43.0254 Y-161.2899
G01 X43.0386 Y-161.3044
G01 X43.0531 Y-161.3176
G01 X43.0689 Y-161.3293
G01 X43.0857 Y-161.3394
G01 X43.1035 Y-161.3478
G01 X43.1219 Y-161.3544
G01 X43.1410 Y-161.3592
G01 X43.1604 Y-161.3620
G01 X43.1800 Y-161.3630
G01 X43.1996 Y-161.3620
G01 X43.2190 Y-161.3592
G01 X43.2381 Y-161.3544
G01 X43.2565 Y-161.3478
G01 X43.2743 Y-161.3394
G01 X43.2911 Y-161.3293
G01 X43.3069 Y-161.3176
G01 X43.3214 Y-161.3044
G01 X43.3359 Y-161.2881
G01 X43.6880 Y-161.2881
G01 X43.7003 Y-161.2875
G01 X43.7124 Y-161.2857
G01 X43.7243 Y-161.2827
G01 X43.7359 Y-161.2785
G01 X43.7470 Y-161.2733
G01 X43.7575 Y-161.2670
G01 X43.7673 Y-161.2597
G01 X43.7764 Y-161.2514
G01 X45.4312 Y-159.5967
G01 X45.4511 Y-159.6017
G01 X45.4729 Y-159.6049
G01 X45.4950 Y-159.6060
G01 X45.9450 Y-159.6060
G01 X45.9671 Y-159.6049
G01 X45.9889 Y-159.6017
G01 X46.0103 Y-159.5963
G01 X46.0311 Y-159.5889
G01 X46.0511 Y-159.5794
G01 X46.0700 Y-159.5681
G01 X46.0877 Y-159.5549
G01 X46.1041 Y-159.5401
G01 X46.1189 Y-159.5237
G01 X46.1321 Y-159.5060
G01 X46.1434 Y-159.4871
G01 X46.1529 Y-159.4671
G01 X46.1603 Y-159.4463
G01 X46.1657 Y-159.4249
G01 X46.1689 Y-159.4031
G01 X46.1700 Y-159.3811
G01 X46.4500 Y-159.3811
G01 X46.5596 Y-159.4907
G01 X46.5596 Y-160.1870
G01 X47.3596 Y-160.1870
G01 X47.3596 Y-158.8870
G01 X46.6077 Y-158.8870
G01 X46.6024 Y-158.8857
G01 X46.5781 Y-158.8821
G01 X46.5536 Y-158.8809
G01 X46.1700 Y-158.8809
G01 X46.1689 Y-158.8589
G01 X46.1657 Y-158.8371
G01 X46.1603 Y-158.8157
G01 X46.1529 Y-158.7949
G01 X46.1434 Y-158.7749
G01 X46.1321 Y-158.7560
G01 X46.1189 Y-158.7383
G01 X46.1041 Y-158.7219
G01 X46.0877 Y-158.7071
G01 X46.0700 Y-158.6939
G01 X46.0511 Y-158.6826
G01 X46.0311 Y-158.6731
G01 X46.0103 Y-158.6657
G01 X45.9889 Y-158.6603
G01 X45.9671 Y-158.6571
G01 X45.9450 Y-158.6560
G01 X45.4950 Y-158.6560
G01 X45.4729 Y-158.6571
G01 X45.4511 Y-158.6603
G01 X45.4297 Y-158.6657
G01 X45.4089 Y-158.6731
G01 X45.3889 Y-158.6826
G01 X45.3700 Y-158.6939
G01 X45.3523 Y-158.7071
G01 X45.3359 Y-158.7219
G01 X45.3211 Y-158.7383
G01 X45.3079 Y-158.7560
G01 X45.2966 Y-158.7749
G01 X45.2871 Y-158.7949
G01 X45.2797 Y-158.8157
G01 X45.2743 Y-158.8371
G01 X45.2711 Y-158.8589
G01 X45.2700 Y-158.8810
G01 X45.2700 Y-159.3810
G01 X45.2711 Y-159.4031
G01 X43.6362 Y-161.0379
G01 X43.3359 Y-161.0379
G01 X43.3214 Y-161.0216
G01 X43.3069 Y-161.0084
G01 X43.2911 Y-160.9967
G01 X43.2743 Y-160.9866
G01 X43.2565 Y-160.9782
G01 X43.2381 Y-160.9716
G01 X43.2190 Y-160.9668
G01 X43.1996 Y-160.9640
G01 X43.1800 Y-160.9630
G01 X43.1604 Y-160.9640
G01 X43.1410 Y-160.9668
G01 X43.1219 Y-160.9716
G01 X43.1035 Y-160.9782
G01 X43.0857 Y-160.9866
G01 X43.0689 Y-160.9967
G01 X43.0531 Y-161.0084
G01 X43.0386 Y-161.0216
G01 X43.0254 Y-161.0361
G01 X43.0137 Y-161.0519
G01 X43.0036 Y-161.0687
G01 X42.9952 Y-161.0865
G01 X42.9886 Y-161.1049
G01 X42.9838 Y-161.1240
G01 X42.9810 Y-161.1434
G01 X42.9800 Y-161.1630
G01 X42.9810 Y-161.1826
G01 X42.9838 Y-161.2020
G00 Z2.0000
G00 X43.3226 Y-162.2685
G01 F60.00
G01 Z-2.4000
G01 F120.00
G01 X43.2957 Y-162.2557
G01 X43.2587 Y-162.2425
G01 X43.2206 Y-162.2330
G01 X43.1818 Y-162.2272
G01 X43.1426 Y-162.2253
G01 X43.1034 Y-162.2272
G01 X43.0646 Y-162.2330
G01 X43.0265 Y-162.2425
G01 X42.9895 Y-162.2557
G01 X42.9540 Y-162.2725
G01 X42.9204 Y-162.2927
G01 X42.8888 Y-162.3161
G01 X42.8598 Y-162.3425
G01 X42.8334 Y-162.3715
G01 X42.8100 Y-162.4031
G01 X42.7898 Y-162.4367
G01 X42.7730 Y-162.4722
G01 X42.7598 Y-162.5092
G01 X42.7503 Y-162.5473
G01 X42.7445 Y-162.5861
G01 X42.7426 Y-162.6253
G01 X42.7445 Y-162.6645
G01 X42.7503 Y-162.7033
G01 X42.7598 Y-162.7414
G01 X42.7730 Y-162.7784
G01 X42.7898 Y-162.8139
G01 X42.8100 Y-162.8475
G01 X42.8334 Y-162.8791
G01 X42.8598 Y-162.9081
G01 X42.8888 Y-162.9345
G01 X42.9204 Y-162.9579
G01 X42.9540 Y-162.9781
G01 X42.9895 Y-162.9949
G01 X43.0265 Y-163.0081
G01 X43.0646 Y-163.0176
G01 X43.1034 Y-163.0234
G01 X43.1426 Y-163.0253
G01 X43.1818 Y-163.0234
G01 X43.2206 Y-163.0176
G01 X43.2587 Y-163.0081
G01 X43.2957 Y-162.9949
G01 X43.3312 Y-162.9781
G01 X43.3648 Y-162.9579
G01 X43.3964 Y-162.9345
G01 X43.4254 Y-162.9081
G01 X43.4518 Y-162.8791
G01 X43.4752 Y-162.8475
G01 X43.4954 Y-162.8139
G01 X43.5122 Y-162.7784
G01 X43.5254 Y-162.7414
G01 X43.5349 Y-162.7033
G01 X43.5407 Y-162.6645
G01 X43.5426 Y-162.6253
G01 X43.5407 Y-162.5861
G01 X43.5349 Y-162.5473
G01 X43.5254 Y-162.5092
G01 X43.5122 Y-162.4722
G01 X43.4994 Y-162.4453
G01 X45.3076 Y-160.6372
G01 X48.2396 Y-160.6372
G01 X48.2519 Y-160.6366
G01 X48.2640 Y-160.6348
G01 X48.2759 Y-160.6318
G01 X48.2875 Y-160.6276
G01 X48.2986 Y-160.6224
G01 X48.3091 Y-160.6161
G01 X48.3189 Y-160.6088
G01 X48.3280 Y-160.6005
G01 X48.3363 Y-160.5914
G01 X48.3436 Y-160.5816
G01 X48.3499 Y-160.5711
G01 X48.3551 Y-160.5600
G01 X48.3593 Y-160.5484
G01 X48.3623 Y-160.5365
G01 X48.3641 Y-160.5244
G01 X48.3647 Y-160.5121
G01 X48.3647 Y-160.1870
G01 X48.6396 Y-160.1870
G01 X48.6396 Y-158.8870
G01 X47.8396 Y-158.8870
G01 X47.8396 Y-160.1870
G01 X48.1145 Y-160.1870
G01 X48.1145 Y-160.3870
G01 X45.2558 Y-160.3870
G01 X45.2435 Y-160.3876
G01 X45.2314 Y-160.3894
G01 X45.2195 Y-160.3924
G01 X45.2079 Y-160.3966
G01 X45.1968 Y-160.4018
G01 X45.1863 Y-160.4081
G01 X45.1765 Y-160.4154
G01 X45.1674 Y-160.4237
G01 X43.3226 Y-162.2685
G00 Z2.0000
G00 X42.7108 Y-163.5509
G01 F60.00
G01 Z-2.4000
G01 F120.00
G01 X42.7648 Y-163.6316
G01 X45.2594 Y-166.1263
G01 X45.3402 Y-166.1803
G01 X45.4355 Y-166.1992
G01 X45.5308 Y-166.1803
G01 X45.6116 Y-166.1263
G01 X45.6655 Y-166.0455
G01 X45.6845 Y-165.9502
G01 X45.6845 Y-165.2826
G01 X45.6824 Y-165.2501
G01 X45.6511 Y-165.1581
G01 X45.5871 Y-165.0851
G01 X45.5817 Y-165.0810
G01 X45.4855 Y-164.9555
G01 X45.4250 Y-164.8095
G01 X45.4043 Y-164.6527
G01 X45.4250 Y-164.4959
G01 X45.4855 Y-164.3499
G01 X45.5817 Y-164.2244
G01 X45.7072 Y-164.1282
G01 X45.8532 Y-164.0677
G01 X46.0100 Y-164.0470
G01 X46.1668 Y-164.0677
G01 X46.1826 Y-164.0718
G01 X46.2074 Y-164.0793
G01 X46.3046 Y-164.0793
G01 X46.3943 Y-164.0421
G01 X46.4630 Y-163.9734
G01 X46.5002 Y-163.8837
G01 X46.5002 Y-163.7865
G01 X46.4955 Y-163.7627
G01 X46.4955 Y-162.3733
G01 X46.5071 Y-162.3148
G01 X46.5515 Y-162.2484
G01 X46.6178 Y-162.2041
G01 X46.6763 Y-162.1925
G01 X48.0657 Y-162.1925
G01 X48.1242 Y-162.2041
G01 X48.1906 Y-162.2484
G01 X48.2349 Y-162.3148
G01 X48.2465 Y-162.3733
G01 X48.2465 Y-162.4935
G01 X48.2655 Y-162.5888
G01 X48.3194 Y-162.6696
G01 X48.4002 Y-162.7235
G01 X48.4955 Y-162.7425
G01 X48.7840 Y-162.7425
G01 X48.8793 Y-162.7235
G01 X48.9601 Y-162.6696
G01 X49.1012 Y-162.5285
G01 X49.1551 Y-162.4477
G01 X49.1741 Y-162.3524
G01 X49.1741 Y-160.6055
G01 X49.1551 Y-160.5102
G01 X49.1012 Y-160.4294
G01 X49.0079 Y-160.3669
G01 X48.9182 Y-160.3297
G01 X48.8210 Y-160.3297
G01 X48.7313 Y-160.3669
G01 X48.7178 Y-160.3759
G01 X48.6686 Y-160.4027
G01 X48.6014 Y-160.4728
G01 X48.5662 Y-160.5634
G01 X48.5651 Y-160.5695
G01 X48.5627 Y-160.5762
G01 X48.5514 Y-160.6181
G01 X48.5502 Y-160.6251
G01 X48.5466 Y-160.6313
G01 X48.5283 Y-160.6707
G01 X48.5258 Y-160.6774
G01 X48.5213 Y-160.6828
G01 X48.4964 Y-160.7184
G01 X48.4928 Y-160.7246
G01 X48.4873 Y-160.7291
G01 X48.4566 Y-160.7598
G01 X48.4521 Y-160.7653
G01 X48.4459 Y-160.7689
G01 X48.4103 Y-160.7938
G01 X48.4049 Y-160.7983
G01 X48.3982 Y-160.8008
G01 X48.3588 Y-160.8191
G01 X48.3526 Y-160.8227
G01 X48.3456 Y-160.8239
G01 X48.3037 Y-160.8352
G01 X48.2970 Y-160.8376
G01 X45.4938 Y-160.8376
G01 X45.3985 Y-160.8566
G01 X45.3177 Y-160.9105
G01 X43.8182 Y-162.4100
G01 X43.7967 Y-162.4345
G01 X43.7538 Y-162.5217
G01 X43.7474 Y-162.6186
G01 X43.7483 Y-162.6253
G01 X43.7276 Y-162.7821
G01 X43.6671 Y-162.9281
G01 X43.5709 Y-163.0536
G01 X43.4454 Y-163.1498
G01 X43.2994 Y-163.2103
G01 X43.1426 Y-163.2310
G01 X42.9733 Y-163.2087
G01 X42.9408 Y-163.2066
G01 X42.8455 Y-163.2255
G01 X42.7648 Y-163.2795
G01 X42.7108 Y-163.3603
G01 X42.6918 Y-163.4556
G01 X42.7108 Y-163.5509
G00 Z2.0000
G00 X45.8849 Y-165.0323
G01 F60.00
G01 Z-2.4000
G01 F120.00
G01 X45.8849 Y-166.5874
G01 X45.8855 Y-166.5997
G01 X45.8873 Y-166.6118
G01 X45.8903 Y-166.6237
G01 X45.8945 Y-166.6353
G01 X45.8997 Y-166.6464
G01 X45.9060 Y-166.6569
G01 X45.9133 Y-166.6667
G01 X45.9216 Y-166.6758
G01 X46.7642 Y-167.5184
G01 X46.7733 Y-167.5267
G01 X46.7831 Y-167.5340
G01 X46.7936 Y-167.5403
G01 X46.8047 Y-167.5455
G01 X46.8163 Y-167.5497
G01 X46.8282 Y-167.5527
G01 X46.8403 Y-167.5545
G01 X46.8526 Y-167.5551
G01 X46.9104 Y-167.5551
G01 X46.9204 Y-167.5831
G01 X46.9372 Y-167.6186
G01 X46.9574 Y-167.6522
G01 X46.9808 Y-167.6838
G01 X47.0072 Y-167.7128
G01 X47.0362 Y-167.7392
G01 X47.0678 Y-167.7626
G01 X47.1014 Y-167.7828
G01 X47.1369 Y-167.7996
G01 X47.1739 Y-167.8128
G01 X47.2120 Y-167.8223
G01 X47.2508 Y-167.8281
G01 X47.2900 Y-167.8300
G01 X47.3292 Y-167.8281
G01 X47.3680 Y-167.8223
G01 X47.4061 Y-167.8128
G01 X47.4431 Y-167.7996
G01 X47.4786 Y-167.7828
G01 X47.5122 Y-167.7626
G01 X47.5438 Y-167.7392
G01 X47.5728 Y-167.7128
G01 X47.5992 Y-167.6838
G01 X47.6226 Y-167.6522
G01 X47.6428 Y-167.6186
G01 X47.6596 Y-167.5831
G01 X47.6728 Y-167.5461
G01 X47.6823 Y-167.5080
G01 X47.6881 Y-167.4692
G01 X47.6900 Y-167.4300
G01 X47.6881 Y-167.3908
G01 X47.6823 Y-167.3520
G01 X47.6728 Y-167.3139
G01 X47.6596 Y-167.2769
G01 X47.6428 Y-167.2414
G01 X47.6226 Y-167.2078
G01 X47.5992 Y-167.1762
G01 X47.5728 Y-167.1472
G01 X47.5438 Y-167.1208
G01 X47.5122 Y-167.0974
G01 X47.4786 Y-167.0772
G01 X47.4431 Y-167.0604
G01 X47.4061 Y-167.0472
G01 X47.3680 Y-167.0377
G01 X47.3292 Y-167.0319
G01 X47.2900 Y-167.0300
G01 X47.2508 Y-167.0319
G01 X47.2120 Y-167.0377
G01 X47.1739 Y-167.0472
G01 X47.1369 Y-167.0604
G01 X47.1014 Y-167.0772
G01 X47.0678 Y-167.0974
G01 X47.0362 Y-167.1208
G01 X47.0072 Y-167.1472
G01 X46.9808 Y-167.1762
G01 X46.9574 Y-167.2078
G01 X46.9372 Y-167.2414
G01 X46.9204 Y-167.2769
G01 X46.9104 Y-167.3049
G01 X46.9044 Y-167.3049
G01 X46.1351 Y-166.5356
G01 X46.1351 Y-165.0323
G01 X46.1631 Y-165.0223
G01 X46.1986 Y-165.0055
G01 X46.2322 Y-164.9853
G01 X46.2638 Y-164.9619
G01 X46.2928 Y-164.9355
G01 X46.3192 Y-164.9065
G01 X46.3426 Y-164.8749
G01 X46.3628 Y-164.8413
G01 X46.3796 Y-164.8058
G01 X46.3928 Y-164.7688
G01 X46.4023 Y-164.7307
G01 X46.4081 Y-164.6919
G01 X46.4100 Y-164.6527
G01 X46.4081 Y-164.6135
G01 X46.4023 Y-164.5747
G01 X46.3928 Y-164.5366
G01 X46.3796 Y-164.4996
G01 X46.3628 Y-164.4641
G01 X46.3426 Y-164.4305
G01 X46.3192 Y-164.3989
G01 X46.2928 Y-164.3699
G01 X46.2638 Y-164.3435
G01 X46.2322 Y-164.3201
G01 X46.1986 Y-164.2999
G01 X46.1631 Y-164.2831
G01 X46.1261 Y-164.2699
G01 X46.0880 Y-164.2604
G01 X46.0492 Y-164.2546
G01 X46.0100 Y-164.2527
G01 X45.9708 Y-164.2546
G01 X45.9320 Y-164.2604
G01 X45.8939 Y-164.2699
G01 X45.8569 Y-164.2831
G01 X45.8214 Y-164.2999
G01 X45.7878 Y-164.3201
G01 X45.7562 Y-164.3435
G01 X45.7272 Y-164.3699
G01 X45.7008 Y-164.3989
G01 X45.6774 Y-164.4305
G01 X45.6572 Y-164.4641
G01 X45.6404 Y-164.4996
G01 X45.6272 Y-164.5366
G01 X45.6177 Y-164.5747
G01 X45.6119 Y-164.6135
G01 X45.6100 Y-164.6527
G01 X45.6119 Y-164.6919
G01 X45.6177 Y-164.7307
G01 X45.6272 Y-164.7688
G01 X45.6404 Y-164.8058
G01 X45.6572 Y-164.8413
G01 X45.6774 Y-164.8749
G01 X45.7008 Y-164.9065
G01 X45.7272 Y-164.9355
G01 X45.7562 Y-164.9619
G01 X45.7878 Y-164.9853
G01 X45.8214 Y-165.0055
G01 X45.8569 Y-165.0223
G01 X45.8849 Y-165.0323
G00 Z2.0000
G00 X46.5120 Y-164.0680
G01 F60.00
G01 Z-2.4000
G01 F120.00
G01 X46.4808 Y-164.1600
G01 X46.4871 Y-164.2569
G01 X46.5301 Y-164.3441
G01 X46.5345 Y-164.3499
G01 X46.5950 Y-164.4959
G01 X46.6157 Y-164.6527
G01 X46.6088 Y-164.7050
G01 X46.6067 Y-164.7375
G01 X46.6256 Y-164.8328
G01 X46.6796 Y-164.9136
G01 X46.7604 Y-164.9675
G01 X46.8557 Y-164.9865
G01 X47.3793 Y-164.9865
G01 X47.4378 Y-164.9981
G01 X47.4613 Y-165.0138
G01 X47.5510 Y-165.0510
G01 X47.6482 Y-165.0510
G01 X47.7379 Y-165.0138
G01 X47.7614 Y-164.9981
G01 X47.8199 Y-164.9865
G01 X48.6593 Y-164.9865
G01 X48.7178 Y-164.9981
G01 X48.7313 Y-165.0071
G01 X48.8210 Y-165.0443
G01 X48.9182 Y-165.0443
G01 X49.0079 Y-165.0071
G01 X49.0178 Y-165.0005
G01 X49.0770 Y-164.9451
G01 X49.1200 Y-164.8579
G01 X49.1263 Y-164.7610
G01 X49.1000 Y-164.6834
G01 X49.1008 Y-164.6831
G01 X49.0341 Y-164.5220
G01 X49.0134 Y-164.3652
G01 X49.0341 Y-164.2084
G01 X49.0946 Y-164.0624
G01 X49.1226 Y-164.0258
G01 X49.1551 Y-163.9695
G01 X49.1741 Y-163.8742
G01 X49.1741 Y-163.6425
G01 X49.1551 Y-163.5472
G01 X49.1012 Y-163.4664
G01 X49.0204 Y-163.4125
G01 X48.9251 Y-163.3935
G01 X48.4955 Y-163.3935
G01 X48.4002 Y-163.4125
G01 X48.3194 Y-163.4664
G01 X48.2655 Y-163.5472
G01 X48.2465 Y-163.6425
G01 X48.2465 Y-163.7627
G01 X48.2349 Y-163.8212
G01 X48.1906 Y-163.8876
G01 X48.1242 Y-163.9319
G01 X48.0657 Y-163.9435
G01 X46.7276 Y-163.9435
G01 X46.6632 Y-163.9520
G01 X46.5761 Y-163.9950
G01 X46.5120 Y-164.0680
G00 Z2.0000
G00 X48.0460 Y-163.7430
G01 F60.00
G01 Z-2.4000
G01 F120.00
G01 X48.0460 Y-163.1931
G01 X49.0220 Y-163.1931
G01 X49.0343 Y-163.1925
G01 X49.0464 Y-163.1907
G01 X49.0583 Y-163.1877
G01 X49.0699 Y-163.1835
G01 X49.0810 Y-163.1783
G01 X49.0915 Y-163.1720
G01 X49.1013 Y-163.1647
G01 X49.1104 Y-163.1564
G01 X49.3745 Y-162.8923
G01 X49.3745 Y-164.0492
G01 X49.3653 Y-164.0560
G01 X49.3363 Y-164.0824
G01 X49.3099 Y-164.1114
G01 X49.2865 Y-164.1430
G01 X49.2663 Y-164.1766
G01 X49.2495 Y-164.2121
G01 X49.2363 Y-164.2491
G01 X49.2268 Y-164.2872
G01 X49.2210 Y-164.3260
G01 X49.2191 Y-164.3652
G01 X49.2210 Y-164.4044
G01 X49.2268 Y-164.4432
G01 X49.2363 Y-164.4813
G01 X49.2495 Y-164.5183
G01 X49.2663 Y-164.5538
G01 X49.2865 Y-164.5874
G01 X49.3099 Y-164.6190
G01 X49.3363 Y-164.6480
G01 X49.3653 Y-164.6744
G01 X49.3969 Y-164.6978
G01 X49.4305 Y-164.7180
G01 X49.4660 Y-164.7348
G01 X49.5030 Y-164.7480
G01 X49.5411 Y-164.7575
G01 X49.5799 Y-164.7633
G01 X49.6191 Y-164.7652
G01 X49.6583 Y-164.7633
G01 X49.6971 Y-164.7575
G01 X49.7352 Y-164.7480
G01 X49.7722 Y-164.7348
G01 X49.8077 Y-164.7180
G01 X49.8413 Y-164.6978
G01 X49.8729 Y-164.6744
G01 X49.9019 Y-164.6480
G01 X49.9283 Y-164.6190
G01 X49.9517 Y-164.5874
G01 X49.9719 Y-164.5538
G01 X49.9887 Y-164.5183
G01 X50.0019 Y-164.4813
G01 X50.0114 Y-164.4432
G01 X50.0172 Y-164.4044
G01 X50.0191 Y-164.3652
G01 X50.0172 Y-164.3260
G01 X50.0114 Y-164.2872
G01 X50.0019 Y-164.2491
G01 X49.9887 Y-164.2121
G01 X49.9719 Y-164.1766
G01 X49.9517 Y-164.1430
G01 X49.9283 Y-164.1114
G01 X49.9019 Y-164.0824
G01 X49.8729 Y-164.0560
G01 X49.8413 Y-164.0326
G01 X49.8077 Y-164.0124
G01 X49.7722 Y-163.9956
G01 X49.7352 Y-163.9824
G01 X49.6971 Y-163.9729
G01 X49.6583 Y-163.9671
G01 X49.6247 Y-163.9655
G01 X49.6247 Y-160.1870
G01 X49.8996 Y-160.1870
G01 X49.8996 Y-158.8870
G01 X49.0996 Y-158.8870
G01 X49.0996 Y-160.1870
G01 X49.3745 Y-160.1870
G01 X49.3745 Y-162.5386
G01 X48.9702 Y-162.9429
G01 X48.0460 Y-162.9429
G01 X48.0460 Y-162.3930
G01 X46.6960 Y-162.3930
G01 X46.6960 Y-163.7430
G01 X48.0460 Y-163.7430
G00 Z2.0000
G00 X49.8441 Y-163.2930
G01 F60.00
G01 Z-2.4000
G01 F120.00
G01 X49.8251 Y-163.3883
G01 X49.8251 Y-163.6436
G01 X49.8272 Y-163.6761
G01 X49.8585 Y-163.7681
G01 X49.9225 Y-163.8411
G01 X50.0474 Y-163.9369
G01 X50.1436 Y-164.0624
G01 X50.1445 Y-164.0644
G01 X50.1770 Y-164.1207
G01 X50.2500 Y-164.1847
G01 X50.3420 Y-164.2159
G01 X50.4390 Y-164.2096
G01 X50.4627 Y-164.2032
G01 X50.4949 Y-164.2061
G01 X50.5166 Y-164.2070
G01 X51.5613 Y-164.2070
G01 X51.6258 Y-164.1985
G01 X51.7129 Y-164.1555
G01 X51.7770 Y-164.0825
G01 X51.8082 Y-163.9905
G01 X51.8018 Y-163.8936
G01 X51.7589 Y-163.8064
G01 X51.7422 Y-163.7846
G01 X51.6817 Y-163.6386
G01 X51.6796 Y-163.6310
G01 X51.6763 Y-163.6144
G01 X51.6333 Y-163.5272
G01 X51.5603 Y-163.4632
G01 X51.4683 Y-163.4319
G01 X51.3714 Y-163.4383
G01 X51.2842 Y-163.4813
G01 X51.1578 Y-163.5782
G01 X51.0118 Y-163.6387
G01 X50.8550 Y-163.6594
G01 X50.6982 Y-163.6387
G01 X50.5522 Y-163.5782
G01 X50.4267 Y-163.4820
G01 X50.3305 Y-163.3565
G01 X50.3041 Y-163.2930
G01 X50.2502 Y-163.2122
G01 X50.1694 Y-163.1582
G01 X50.0741 Y-163.1393
G01 X49.9788 Y-163.1582
G01 X49.8980 Y-163.2122
G01 X49.8441 Y-163.2930
G00 Z2.0000
G00 X49.8270 Y-162.6409
G01 F60.00
G01 Z-2.4000
G01 F120.00
G01 X49.8284 Y-162.6410
G01 X49.8251 Y-162.6660
G01 X49.8251 Y-162.7191
G01 X49.8441 Y-162.8144
G01 X49.8980 Y-162.8952
G01 X49.9788 Y-162.9492
G01 X50.0741 Y-162.9681
G01 X50.1694 Y-162.9492
G01 X50.2502 Y-162.8952
G01 X50.3041 Y-162.8144
G01 X50.3305 Y-162.7509
G01 X50.3926 Y-162.6698
G01 X50.4251 Y-162.6135
G01 X50.4441 Y-162.5182
G01 X50.4441 Y-160.6055
G01 X50.4251 Y-160.5102
G01 X50.3712 Y-160.4294
G01 X50.2729 Y-160.3635
G01 X50.1832 Y-160.3264
G01 X50.0860 Y-160.3264
G01 X49.9963 Y-160.3635
G01 X49.8980 Y-160.4294
G01 X49.8441 Y-160.5102
G01 X49.8251 Y-160.6055
G01 X49.8251 Y-162.5653
G01 X49.8260 Y-162.5870
G01 X49.8289 Y-162.6192
G01 X49.8270 Y-162.6409
G00 Z2.0000
G00 X51.1141 Y-160.5102
G01 F60.00
G01 Z-2.4000
G01 F120.00
G01 X51.0951 Y-160.6055
G01 X51.0951 Y-162.3582
G01 X51.0972 Y-162.3907
G01 X51.1285 Y-162.4827
G01 X51.1925 Y-162.5558
G01 X51.2833 Y-162.6254
G01 X51.2899 Y-162.6321
G01 X51.2990 Y-162.6424
G01 X51.3798 Y-162.6964
G01 X51.4751 Y-162.7154
G01 X51.5704 Y-162.6964
G01 X51.6512 Y-162.6424
G01 X51.7051 Y-162.5617
G01 X51.7241 Y-162.4664
G01 X51.7241 Y-160.6055
G01 X51.7051 Y-160.5102
G01 X51.6512 Y-160.4294
G01 X51.5479 Y-160.3602
G01 X51.4582 Y-160.3230
G01 X51.3610 Y-160.3230
G01 X51.2713 Y-160.3602
G01 X51.1680 Y-160.4294
G01 X51.1141 Y-160.5102
G00 Z2.0000
G00 X51.6496 Y-160.1870
G01 F60.00
G01 Z-2.4000
G01 F120.00
G01 X51.9245 Y-160.1870
G01 X51.9245 Y-163.2647
G01 X51.9250 Y-163.2747
G01 X51.9139 Y-163.2932
G01 X51.8971 Y-163.3287
G01 X51.8839 Y-163.3657
G01 X51.8744 Y-163.4038
G01 X51.8686 Y-163.4426
G01 X51.8667 Y-163.4818
G01 X51.8686 Y-163.5210
G01 X51.8744 Y-163.5598
G01 X51.8839 Y-163.5979
G01 X51.8971 Y-163.6349
G01 X51.9139 Y-163.6704
G01 X51.9341 Y-163.7040
G01 X51.9575 Y-163.7356
G01 X51.9839 Y-163.7646
G01 X52.0129 Y-163.7910
G01 X52.0445 Y-163.8144
G01 X52.0781 Y-163.8346
G01 X52.1136 Y-163.8514
G01 X52.1506 Y-163.8646
G01 X52.1887 Y-163.8741
G01 X52.2275 Y-163.8799
G01 X52.2667 Y-163.8818
G01 X52.3059 Y-163.8799
G01 X52.3447 Y-163.8741
G01 X52.3828 Y-163.8646
G01 X52.4198 Y-163.8514
G01 X52.4553 Y-163.8346
G01 X52.4889 Y-163.8144
G01 X52.5205 Y-163.7910
G01 X52.5495 Y-163.7646
G01 X52.5759 Y-163.7356
G01 X52.5993 Y-163.7040
G01 X52.6195 Y-163.6704
G01 X52.6363 Y-163.6349
G01 X52.6495 Y-163.5979
G01 X52.6590 Y-163.5598
G01 X52.6648 Y-163.5210
G01 X52.6667 Y-163.4818
G01 X52.6648 Y-163.4426
G01 X52.6590 Y-163.4038
G01 X52.6495 Y-163.3657
G01 X52.6363 Y-163.3287
G01 X52.6195 Y-163.2932
G01 X52.5993 Y-163.2596
G01 X52.5759 Y-163.2280
G01 X52.5495 Y-163.1990
G01 X52.5205 Y-163.1726
G01 X52.4889 Y-163.1492
G01 X52.4553 Y-163.1290
G01 X52.4198 Y-163.1122
G01 X52.3828 Y-163.0990
G01 X52.3447 Y-163.0895
G01 X52.3059 Y-163.0837
G01 X52.2667 Y-163.0818
G01 X52.2275 Y-163.0837
G01 X52.1887 Y-163.0895
G01 X52.1747 Y-163.0930
G01 X52.1747 Y-160.1870
G01 X52.4496 Y-160.1870
G01 X52.4496 Y-158.8870
G01 X51.6496 Y-158.8870
G01 X51.6496 Y-160.1870
G00 Z2.0000
G00 X52.9196 Y-160.1870
G01 F60.00
G01 Z-2.4000
G01 F120.00
G01 X53.1945 Y-160.1870
G01 X53.1945 Y-160.5121
G01 X53.1951 Y-160.5244
G01 X53.1969 Y-160.5365
G01 X53.1999 Y-160.5484
G01 X53.2041 Y-160.5600
G01 X53.2093 Y-160.5711
G01 X53.2156 Y-160.5816
G01 X53.2229 Y-160.5914
G01 X53.2312 Y-160.6005
G01 X53.4852 Y-160.8546
G01 X53.4852 Y-161.4619
G01 X53.4572 Y-161.4719
G01 X53.4217 Y-161.4887
G01 X53.3881 Y-161.5089
G01 X53.3565 Y-161.5323
G01 X53.3275 Y-161.5587
G01 X53.3011 Y-161.5877
G01 X53.2777 Y-161.6193
G01 X53.2575 Y-161.6529
G01 X53.2407 Y-161.6884
G01 X53.2275 Y-161.7254
G01 X53.2180 Y-161.7635
G01 X53.2122 Y-161.8023
G01 X53.2103 Y-161.8415
G01 X53.2122 Y-161.8807
G01 X53.2180 Y-161.9195
G01 X53.2275 Y-161.9576
G01 X53.2407 Y-161.9946
G01 X53.2575 Y-162.0301
G01 X53.2777 Y-162.0637
G01 X53.3011 Y-162.0953
G01 X53.3275 Y-162.1243
G01 X53.3565 Y-162.1507
G01 X53.3881 Y-162.1741
G01 X53.4217 Y-162.1943
G01 X53.4572 Y-162.2111
G01 X53.4942 Y-162.2243
G01 X53.5323 Y-162.2338
G01 X53.5711 Y-162.2396
G01 X53.6103 Y-162.2415
G01 X53.6495 Y-162.2396
G01 X53.6883 Y-162.2338
G01 X53.7264 Y-162.2243
G01 X53.7634 Y-162.2111
G01 X53.7989 Y-162.1943
G01 X53.8325 Y-162.1741
G01 X53.8641 Y-162.1507
G01 X53.8931 Y-162.1243
G01 X53.9195 Y-162.0953
G01 X53.9429 Y-162.0637
G01 X53.9631 Y-162.0301
G01 X53.9799 Y-161.9946
G01 X53.9931 Y-161.9576
G01 X54.0026 Y-161.9195
G01 X54.0084 Y-161.8807
G01 X54.0103 Y-161.8415
G01 X54.0084 Y-161.8023
G01 X54.0026 Y-161.7635
G01 X53.9931 Y-161.7254
G01 X53.9799 Y-161.6884
G01 X53.9631 Y-161.6529
G01 X53.9429 Y-161.6193
G01 X53.9195 Y-161.5877
G01 X53.8931 Y-161.5587
G01 X53.8641 Y-161.5323
G01 X53.8325 Y-161.5089
G01 X53.7989 Y-161.4887
G01 X53.7634 Y-161.4719
G01 X53.7354 Y-161.4619
G01 X53.7354 Y-160.8028
G01 X53.7348 Y-160.7905
G01 X53.7330 Y-160.7784
G01 X53.7300 Y-160.7665
G01 X53.7258 Y-160.7549
G01 X53.7206 Y-160.7438
G01 X53.7143 Y-160.7333
G01 X53.7070 Y-160.7235
G01 X53.6987 Y-160.7144
G01 X53.4447 Y-160.4603
G01 X53.4447 Y-160.1870
G01 X53.7196 Y-160.1870
G01 X53.7196 Y-158.8870
G01 X52.9196 Y-158.8870
G01 X52.9196 Y-160.1870
G00 Z2.0000
G00 X54.1796 Y-160.1870
G01 F60.00
G01 Z-2.4000
G01 F120.00
G01 X54.4545 Y-160.1870
G01 X54.4545 Y-162.0309
G01 X54.4551 Y-162.0432
G01 X54.4569 Y-162.0553
G01 X54.4599 Y-162.0672
G01 X54.4641 Y-162.0788
G01 X54.4693 Y-162.0899
G01 X54.4756 Y-162.1004
G01 X54.4829 Y-162.1102
G01 X54.4912 Y-162.1193
G01 X57.5487 Y-165.1768
G01 X57.5359 Y-165.2037
G01 X57.5227 Y-165.2407
G01 X57.5132 Y-165.2788
G01 X57.5074 Y-165.3176
G01 X57.5055 Y-165.3568
G01 X57.5074 Y-165.3960
G01 X57.5132 Y-165.4348
G01 X57.5227 Y-165.4729
G01 X57.5359 Y-165.5099
G01 X57.5527 Y-165.5454
G01 X57.5729 Y-165.5790
G01 X57.5963 Y-165.6106
G01 X57.6227 Y-165.6396
G01 X57.6517 Y-165.6660
G01 X57.6833 Y-165.6894
G01 X57.7169 Y-165.7096
G01 X57.7524 Y-165.7264
G01 X57.7894 Y-165.7396
G01 X57.8275 Y-165.7491
G01 X57.8663 Y-165.7549
G01 X57.9055 Y-165.7568
G01 X57.9447 Y-165.7549
G01 X57.9835 Y-165.7491
G01 X58.0216 Y-165.7396
G01 X58.0586 Y-165.7264
G01 X58.0941 Y-165.7096
G01 X58.1277 Y-165.6894
G01 X58.1593 Y-165.6660
G01 X58.1883 Y-165.6396
G01 X58.2147 Y-165.6106
G01 X58.2381 Y-165.5790
G01 X58.2583 Y-165.5454
G01 X58.2751 Y-165.5099
G01 X58.2883 Y-165.4729
G01 X58.2978 Y-165.4348
G01 X58.3036 Y-165.3960
G01 X58.3055 Y-165.3568
G01 X58.3036 Y-165.3176
G01 X58.2978 Y-165.2788
G01 X58.2883 Y-165.2407
G01 X58.2751 Y-165.2037
G01 X58.2583 Y-165.1682
G01 X58.2381 Y-165.1346
G01 X58.2147 Y-165.1030
G01 X58.1883 Y-165.0740
G01 X58.1593 Y-165.0476
G01 X58.1277 Y-165.0242
G01 X58.0941 Y-165.0040
G01 X58.0586 Y-164.9872
G01 X58.0216 Y-164.9740
G01 X57.9835 Y-164.9645
G01 X57.9447 Y-164.9587
G01 X57.9055 Y-164.9568
G01 X57.8663 Y-164.9587
G01 X57.8275 Y-164.9645
G01 X57.7894 Y-164.9740
G01 X57.7524 Y-164.9872
G01 X57.7255 Y-165.0000
G01 X54.7047 Y-161.9791
G01 X54.7047 Y-160.1870
G01 X54.9796 Y-160.1870
G01 X54.9796 Y-158.8870
G01 X54.1796 Y-158.8870
G01 X54.1796 Y-160.1870
G00 Z2.0000
G00 X54.9241 Y-161.8882
G01 F60.00
G01 Z-2.4000
G01 F120.00
G01 X54.9780 Y-161.9690
G01 X57.6902 Y-164.6812
G01 X57.7147 Y-164.7027
G01 X57.8018 Y-164.7456
G01 X57.8988 Y-164.7520
G01 X57.9055 Y-164.7511
G01 X58.0623 Y-164.7718
G01 X58.2083 Y-164.8323
G01 X58.3338 Y-164.9285
G01 X58.3680 Y-164.9731
G01 X58.3894 Y-164.9975
G01 X58.4702 Y-165.0515
G01 X58.5655 Y-165.0705
G01 X58.6608 Y-165.0515
G01 X58.7416 Y-164.9975
G01 X58.7955 Y-164.9168
G01 X58.8145 Y-164.8215
G01 X58.8145 Y-164.0243
G01 X58.8261 Y-163.9658
G01 X58.8704 Y-163.8995
G01 X58.9368 Y-163.8551
G01 X58.9953 Y-163.8435
G01 X60.3847 Y-163.8435
G01 X60.4432 Y-163.8551
G01 X60.5096 Y-163.8994
G01 X60.5539 Y-163.9658
G01 X60.5655 Y-164.0243
G01 X60.5655 Y-165.4137
G01 X60.5539 Y-165.4722
G01 X60.5096 Y-165.5386
G01 X60.4324 Y-165.5901
G01 X60.3732 Y-165.6456
G01 X60.3302 Y-165.7327
G01 X60.3239 Y-165.8296
G01 X60.3551 Y-165.9216
G01 X60.4192 Y-165.9947
G01 X60.4479 Y-166.0167
G01 X60.5204 Y-166.1113
G01 X60.5419 Y-166.1358
G01 X60.6227 Y-166.1897
G01 X60.7180 Y-166.2087
G01 X60.8133 Y-166.1897
G01 X60.8940 Y-166.1358
G01 X61.1428 Y-165.8870
G01 X61.1967 Y-165.8062
G01 X61.2157 Y-165.7110
G01 X61.2157 Y-165.2011
G01 X61.2109 Y-165.1525
G01 X61.1737 Y-165.0627
G01 X61.1362 Y-165.0252
G01 X61.1390 Y-165.0225
G01 X61.1216 Y-165.0051
G01 X61.0773 Y-164.9388
G01 X61.0657 Y-164.8803
G01 X61.0657 Y-163.5409
G01 X61.0773 Y-163.4824
G01 X61.0934 Y-163.4583
G01 X61.1164 Y-163.4152
G01 X61.1354 Y-163.3199
G01 X61.1164 Y-163.2246
G01 X61.0625 Y-163.1439
G01 X57.6898 Y-159.7712
G01 X57.6761 Y-159.7585
G01 X57.6445 Y-159.7313
G01 X57.6324 Y-159.7172
G01 X57.6320 Y-159.7175
G01 X57.6156 Y-159.6970
G01 X56.8789 Y-158.9603
G01 X56.7981 Y-158.9064
G01 X56.7029 Y-158.8874
G01 X56.2596 Y-158.8874
G01 X56.2596 Y-158.8870
G01 X55.4596 Y-158.8870
G01 X55.4596 Y-158.8874
G01 X55.4291 Y-158.8874
G01 X55.3338 Y-158.9064
G01 X55.2530 Y-158.9603
G01 X55.1991 Y-159.0411
G01 X55.1801 Y-159.1364
G01 X55.1801 Y-160.2067
G01 X55.1685 Y-160.2652
G01 X55.1242 Y-160.3316
G01 X54.9780 Y-160.4294
G01 X54.9241 Y-160.5102
G01 X54.9051 Y-160.6055
G01 X54.9051 Y-161.7929
G01 X54.9241 Y-161.8882
G00 Z2.0000
G00 X52.3941 Y-162.8056
G01 F60.00
G01 Z-2.4000
G01 F120.00
G01 X52.4480 Y-162.8864
G01 X52.5288 Y-162.9404
G01 X52.5695 Y-162.9573
G01 X52.6950 Y-163.0535
G01 X52.7912 Y-163.1790
G01 X52.8517 Y-163.3250
G01 X52.8552 Y-163.3380
G01 X52.8657 Y-163.3688
G01 X52.9197 Y-163.4496
G01 X53.0004 Y-163.5036
G01 X53.0957 Y-163.5225
G01 X53.1910 Y-163.5036
G01 X53.2718 Y-163.4496
G01 X53.6271 Y-163.0943
G01 X53.6486 Y-163.0698
G01 X53.6915 Y-162.9827
G01 X53.6979 Y-162.8857
G01 X53.6970 Y-162.8790
G01 X53.7189 Y-162.7126
G01 X53.7126 Y-162.6157
G01 X53.6696 Y-162.5285
G01 X53.5965 Y-162.4645
G01 X53.5045 Y-162.4333
G01 X53.4535 Y-162.4265
G01 X53.3075 Y-162.3660
G01 X53.1820 Y-162.2698
G01 X53.0858 Y-162.1443
G01 X53.0253 Y-161.9983
G01 X53.0046 Y-161.8415
G01 X53.0253 Y-161.6847
G01 X53.0858 Y-161.5387
G01 X53.1820 Y-161.4132
G01 X53.1874 Y-161.4091
G01 X53.2119 Y-161.3876
G01 X53.2658 Y-161.3068
G01 X53.2848 Y-161.2116
G01 X53.2848 Y-161.0408
G01 X53.2658 Y-160.9455
G01 X53.2119 Y-160.8647
G01 X53.1072 Y-160.7600
G01 X53.0912 Y-160.7453
G01 X53.0664 Y-160.7246
G01 X53.0502 Y-160.6966
G01 X53.0386 Y-160.6783
G01 X53.0200 Y-160.6518
G01 X53.0139 Y-160.6387
G01 X53.0090 Y-160.6251
G01 X53.0034 Y-160.5933
G01 X52.9987 Y-160.5721
G01 X52.9910 Y-160.5433
G01 X52.9805 Y-160.5124
G01 X52.9265 Y-160.4317
G01 X52.8457 Y-160.3777
G01 X52.8414 Y-160.3759
G01 X52.8229 Y-160.3635
G01 X52.7332 Y-160.3264
G01 X52.6360 Y-160.3264
G01 X52.5463 Y-160.3635
G01 X52.4480 Y-160.4294
G01 X52.3941 Y-160.5102
G01 X52.3751 Y-160.6055
G01 X52.3751 Y-162.7103
G01 X52.3941 Y-162.8056
G00 Z2.0000
G00 X53.4767 Y-164.1921
G01 F60.00
G01 Z-2.4000
G01 F120.00
G01 X53.4578 Y-164.2874
G01 X53.4767 Y-164.3827
G01 X53.5307 Y-164.4635
G01 X53.6115 Y-164.5174
G01 X53.7068 Y-164.5364
G01 X56.0236 Y-164.5364
G01 X56.1189 Y-164.5174
G01 X56.1997 Y-164.4635
G01 X56.2537 Y-164.3827
G01 X56.2726 Y-164.2874
G01 X56.2537 Y-164.1921
G01 X56.1997 Y-164.1113
G01 X55.2188 Y-163.1305
G01 X55.1672 Y-163.0909
G01 X55.0752 Y-163.0597
G01 X54.9783 Y-163.0660
G01 X54.8912 Y-163.1090
G01 X54.8381 Y-163.1696
G01 X54.8372 Y-163.1689
G01 X54.7310 Y-163.3073
G01 X54.6055 Y-163.4035
G01 X54.4595 Y-163.4640
G01 X54.3027 Y-163.4847
G01 X54.2960 Y-163.4838
G01 X54.2635 Y-163.4817
G01 X54.1682 Y-163.5006
G01 X54.0874 Y-163.5546
G01 X53.5307 Y-164.1113
G01 X53.4767 Y-164.1921
G00 Z2.0000
G00 X53.1945 Y-165.1870
G01 F60.00
G01 Z-2.4000
G01 F120.00
G01 X52.9196 Y-165.1870
G01 X52.9196 Y-166.4870
G01 X53.7196 Y-166.4870
G01 X53.7196 Y-165.1870
G01 X53.4447 Y-165.1870
G01 X53.4447 Y-164.9870
G01 X56.4087 Y-164.9870
G01 X56.5630 Y-165.1413
G01 X56.5630 Y-165.2266
G01 X56.5636 Y-165.2389
G01 X56.5654 Y-165.2510
G01 X56.5684 Y-165.2629
G01 X56.5726 Y-165.2745
G01 X56.5778 Y-165.2856
G01 X56.5841 Y-165.2961
G01 X56.5914 Y-165.3059
G01 X56.5997 Y-165.3150
G01 X57.8181 Y-166.5334
G01 X57.8272 Y-166.5417
G01 X57.8370 Y-166.5490
G01 X57.8475 Y-166.5553
G01 X57.8586 Y-166.5605
G01 X57.8702 Y-166.5647
G01 X57.8821 Y-166.5677
G01 X57.8942 Y-166.5695
G01 X57.9065 Y-166.5701
G01 X59.6400 Y-166.5701
G01 X59.6500 Y-166.5981
G01 X59.6668 Y-166.6336
G01 X59.6870 Y-166.6672
G01 X59.7104 Y-166.6988
G01 X59.7368 Y-166.7278
G01 X59.7658 Y-166.7542
G01 X59.7974 Y-166.7776
G01 X59.8310 Y-166.7978
G01 X59.8665 Y-166.8146
G01 X59.9035 Y-166.8278
G01 X59.9416 Y-166.8373
G01 X59.9804 Y-166.8431
G01 X60.0196 Y-166.8450
G01 X60.0588 Y-166.8431
G01 X60.0976 Y-166.8373
G01 X60.1357 Y-166.8278
G01 X60.1727 Y-166.8146
G01 X60.2082 Y-166.7978
G01 X60.2418 Y-166.7776
G01 X60.2734 Y-166.7542
G01 X60.3024 Y-166.7278
G01 X60.3288 Y-166.6988
G01 X60.3522 Y-166.6672
G01 X60.3724 Y-166.6336
G01 X60.3892 Y-166.5981
G01 X60.4024 Y-166.5611
G01 X60.4119 Y-166.5230
G01 X60.4177 Y-166.4842
G01 X60.4196 Y-166.4450
G01 X60.4177 Y-166.4058
G01 X60.4119 Y-166.3670
G01 X60.4024 Y-166.3289
G01 X60.3892 Y-166.2919
G01 X60.3724 Y-166.2564
G01 X60.3522 Y-166.2228
G01 X60.3288 Y-166.1912
G01 X60.3024 Y-166.1622
G01 X60.2734 Y-166.1358
G01 X60.2418 Y-166.1124
G01 X60.2082 Y-166.0922
G01 X60.1727 Y-166.0754
G01 X60.1357 Y-166.0622
G01 X60.0976 Y-166.0527
G01 X60.0588 Y-166.0469
G01 X60.0196 Y-166.0450
G01 X59.9804 Y-166.0469
G01 X59.9416 Y-166.0527
G01 X59.9035 Y-166.0622
G01 X59.8665 Y-166.0754
G01 X59.8310 Y-166.0922
G01 X59.7974 Y-166.1124
G01 X59.7658 Y-166.1358
G01 X59.7368 Y-166.1622
G01 X59.7104 Y-166.1912
G01 X59.6870 Y-166.2228
G01 X59.6668 Y-166.2564
G01 X59.6500 Y-166.2919
G01 X59.6400 Y-166.3199
G01 X57.9583 Y-166.3199
G01 X56.8132 Y-165.1748
G01 X56.8132 Y-165.0895
G01 X56.8126 Y-165.0772
G01 X56.8108 Y-165.0651
G01 X56.8078 Y-165.0532
G01 X56.8036 Y-165.0416
G01 X56.7984 Y-165.0305
G01 X56.7921 Y-165.0200
G01 X56.7848 Y-165.0102
G01 X56.7765 Y-165.0011
G01 X56.5489 Y-164.7735
G01 X56.5398 Y-164.7652
G01 X56.5300 Y-164.7579
G01 X56.5195 Y-164.7516
G01 X56.5084 Y-164.7464
G01 X56.4968 Y-164.7422
G01 X56.4849 Y-164.7392
G01 X56.4728 Y-164.7374
G01 X56.4605 Y-164.7368
G01 X53.3196 Y-164.7368
G01 X53.3073 Y-164.7374
G01 X53.2952 Y-164.7392
G01 X53.2833 Y-164.7422
G01 X53.2717 Y-164.7464
G01 X53.2606 Y-164.7516
G01 X53.2501 Y-164.7579
G01 X53.2403 Y-164.7652
G01 X53.2312 Y-164.7735
G01 X53.2229 Y-164.7826
G01 X53.2156 Y-164.7924
G01 X53.2093 Y-164.8029
G01 X53.2041 Y-164.8140
G01 X53.1999 Y-164.8256
G01 X53.1969 Y-164.8375
G01 X53.1951 Y-164.8496
G01 X53.1945 Y-164.8619
G01 X53.1945 Y-165.1870
G00 Z2.0000
G00 X52.3941 Y-166.8102
G01 F60.00
G01 Z-2.4000
G01 F120.00
G01 X52.3751 Y-166.9055
G01 X52.3751 Y-167.0706
G01 X52.3941 Y-167.1659
G01 X52.4480 Y-167.2467
G01 X53.4598 Y-168.2585
G01 X53.4758 Y-168.2732
G01 X53.5006 Y-168.2939
G01 X53.5167 Y-168.3219
G01 X53.5284 Y-168.3402
G01 X53.5470 Y-168.3667
G01 X53.5531 Y-168.3798
G01 X53.5580 Y-168.3934
G01 X53.5636 Y-168.4252
G01 X53.5683 Y-168.4464
G01 X53.5767 Y-168.4776
G01 X53.5738 Y-168.5098
G01 X53.5729 Y-168.5315
G01 X53.5729 Y-169.7657
G01 X53.5836 Y-169.8380
G01 X53.6294 Y-169.9236
G01 X53.7045 Y-169.9853
G01 X53.7975 Y-170.0135
G01 X53.8942 Y-170.0040
G01 X53.9799 Y-169.9582
G01 X54.0235 Y-169.9223
G01 X54.2060 Y-169.8248
G01 X54.4041 Y-169.7647
G01 X54.6100 Y-169.7444
G01 X54.8159 Y-169.7647
G01 X55.0140 Y-169.8248
G01 X55.0949 Y-169.8680
G01 X55.1170 Y-169.8785
G01 X55.2123 Y-169.8974
G01 X55.3076 Y-169.8785
G01 X55.3884 Y-169.8245
G01 X55.4423 Y-169.7437
G01 X55.4613 Y-169.6484
G01 X55.4613 Y-168.9935
G01 X55.4423 Y-168.8982
G01 X55.3884 Y-168.8174
G01 X54.3672 Y-167.7962
G01 X54.3512 Y-167.7815
G01 X54.3264 Y-167.7608
G01 X54.3102 Y-167.7328
G01 X54.2986 Y-167.7145
G01 X54.2800 Y-167.6880
G01 X54.2739 Y-167.6749
G01 X54.2690 Y-167.6613
G01 X54.2634 Y-167.6295
G01 X54.2587 Y-167.6083
G01 X54.2503 Y-167.5771
G01 X54.2532 Y-167.5449
G01 X54.2541 Y-167.5232
G01 X54.2541 Y-166.9055
G01 X54.2351 Y-166.8102
G01 X54.1812 Y-166.7294
G01 X54.0879 Y-166.6669
G01 X53.9982 Y-166.6297
G01 X53.9010 Y-166.6297
G01 X53.8113 Y-166.6669
G01 X53.7978 Y-166.6759
G01 X53.7393 Y-166.6875
G01 X52.8999 Y-166.6875
G01 X52.8414 Y-166.6759
G01 X52.8229 Y-166.6635
G01 X52.7332 Y-166.6264
G01 X52.6360 Y-166.6264
G01 X52.5463 Y-166.6635
G01 X52.4480 Y-166.7294
G01 X52.3941 Y-166.8102
G00 Z2.0000
G00 X51.1696 Y-166.4870
G01 F60.00
G01 Z-2.4000
G01 F120.00
G01 X51.1696 Y-165.1870
G01 X50.3696 Y-165.1870
G01 X50.3696 Y-166.4870
G01 X51.1696 Y-166.4870
G00 Z2.0000
G00 X49.6601 Y-165.1870
G01 F60.00
G01 Z-2.4000
G01 F120.00
G01 X49.0996 Y-165.1870
G01 X49.0996 Y-166.4870
G01 X49.8996 Y-166.4870
G01 X49.8996 Y-165.3013
G01 X50.5433 Y-164.6576
G01 X52.6492 Y-164.6576
G01 X52.6615 Y-164.6570
G01 X52.6736 Y-164.6552
G01 X52.6855 Y-164.6522
G01 X52.6971 Y-164.6480
G01 X52.7082 Y-164.6428
G01 X52.7187 Y-164.6365
G01 X52.7285 Y-164.6292
G01 X52.7376 Y-164.6209
G01 X54.1227 Y-163.2358
G01 X54.1496 Y-163.2486
G01 X54.1866 Y-163.2618
G01 X54.2247 Y-163.2713
G01 X54.2635 Y-163.2771
G01 X54.3027 Y-163.2790
G01 X54.3419 Y-163.2771
G01 X54.3807 Y-163.2713
G01 X54.4188 Y-163.2618
G01 X54.4558 Y-163.2486
G01 X54.4913 Y-163.2318
G01 X54.5249 Y-163.2116
G01 X54.5565 Y-163.1882
G01 X54.5855 Y-163.1618
G01 X54.6119 Y-163.1328
G01 X54.6353 Y-163.1012
G01 X54.6555 Y-163.0676
G01 X54.6723 Y-163.0321
G01 X54.6855 Y-162.9951
G01 X54.6950 Y-162.9570
G01 X54.7008 Y-162.9182
G01 X54.7027 Y-162.8790
G01 X54.7008 Y-162.8398
G01 X54.6950 Y-162.8010
G01 X54.6855 Y-162.7629
G01 X54.6723 Y-162.7259
G01 X54.6555 Y-162.6904
G01 X54.6353 Y-162.6568
G01 X54.6119 Y-162.6252
G01 X54.5855 Y-162.5962
G01 X54.5565 Y-162.5698
G01 X54.5249 Y-162.5464
G01 X54.4913 Y-162.5262
G01 X54.4558 Y-162.5094
G01 X54.4188 Y-162.4962
G01 X54.3807 Y-162.4867
G01 X54.3419 Y-162.4809
G01 X54.3027 Y-162.4790
G01 X54.2635 Y-162.4809
G01 X54.2247 Y-162.4867
G01 X54.1866 Y-162.4962
G01 X54.1496 Y-162.5094
G01 X54.1141 Y-162.5262
G01 X54.0805 Y-162.5464
G01 X54.0489 Y-162.5698
G01 X54.0199 Y-162.5962
G01 X53.9935 Y-162.6252
G01 X53.9701 Y-162.6568
G01 X53.9499 Y-162.6904
G01 X53.9331 Y-162.7259
G01 X53.9199 Y-162.7629
G01 X53.9104 Y-162.8010
G01 X53.9046 Y-162.8398
G01 X53.9027 Y-162.8790
G01 X53.9046 Y-162.9182
G01 X53.9104 Y-162.9570
G01 X53.9199 Y-162.9951
G01 X53.9331 Y-163.0321
G01 X53.9459 Y-163.0590
G01 X52.5974 Y-164.4074
G01 X50.4915 Y-164.4074
G01 X50.4792 Y-164.4080
G01 X50.4671 Y-164.4098
G01 X50.4552 Y-164.4128
G01 X50.4436 Y-164.4170
G01 X50.4325 Y-164.4222
G01 X50.4220 Y-164.4285
G01 X50.4122 Y-164.4358
G01 X50.4031 Y-164.4441
G01 X49.6601 Y-165.1870
G00 Z2.0000
G00 X48.9464 Y-166.8412
G01 F60.00
G01 Z-2.4000
G01 F120.00
G01 X48.9275 Y-166.9365
G01 X48.9464 Y-167.0318
G01 X49.0004 Y-167.1126
G01 X50.9440 Y-169.0562
G01 X50.9601 Y-169.0709
G01 X50.9848 Y-169.0916
G01 X51.0010 Y-169.1196
G01 X51.0126 Y-169.1379
G01 X51.0312 Y-169.1644
G01 X51.0373 Y-169.1775
G01 X51.0422 Y-169.1911
G01 X51.0478 Y-169.2229
G01 X51.0525 Y-169.2441
G01 X51.0609 Y-169.2753
G01 X51.0580 Y-169.3075
G01 X51.0571 Y-169.3292
G01 X51.0571 Y-169.7608
G01 X51.0678 Y-169.8331
G01 X51.1136 Y-169.9188
G01 X51.1887 Y-169.9804
G01 X51.2817 Y-170.0086
G01 X51.3784 Y-169.9991
G01 X51.4641 Y-169.9533
G01 X51.4835 Y-169.9373
G01 X51.6660 Y-169.8398
G01 X51.8641 Y-169.7797
G01 X52.0700 Y-169.7594
G01 X52.2759 Y-169.7797
G01 X52.4740 Y-169.8398
G01 X52.5555 Y-169.8834
G01 X52.5776 Y-169.8938
G01 X52.6729 Y-169.9128
G01 X52.7682 Y-169.8938
G01 X52.8490 Y-169.8398
G01 X52.9029 Y-169.7591
G01 X52.9219 Y-169.6638
G01 X52.9219 Y-168.7444
G01 X52.9029 Y-168.6491
G01 X52.8490 Y-168.5683
G01 X51.8372 Y-167.5565
G01 X51.8212 Y-167.5418
G01 X51.7964 Y-167.5211
G01 X51.7802 Y-167.4931
G01 X51.7686 Y-167.4748
G01 X51.7500 Y-167.4483
G01 X51.7439 Y-167.4352
G01 X51.7390 Y-167.4216
G01 X51.7334 Y-167.3898
G01 X51.7287 Y-167.3686
G01 X51.7203 Y-167.3374
G01 X51.7232 Y-167.3052
G01 X51.7241 Y-167.2835
G01 X51.7241 Y-166.9055
G01 X51.7051 Y-166.8102
G01 X51.6512 Y-166.7294
G01 X51.5479 Y-166.6602
G01 X51.4582 Y-166.6230
G01 X51.3610 Y-166.6230
G01 X51.2713 Y-166.6602
G01 X51.2478 Y-166.6759
G01 X51.1893 Y-166.6875
G01 X50.3499 Y-166.6875
G01 X50.2914 Y-166.6759
G01 X50.2729 Y-166.6635
G01 X50.1832 Y-166.6264
G01 X50.0860 Y-166.6264
G01 X49.9963 Y-166.6635
G01 X49.9778 Y-166.6759
G01 X49.9193 Y-166.6875
G01 X49.1765 Y-166.6875
G01 X49.0812 Y-166.7065
G01 X49.0004 Y-166.7604
G01 X48.9464 Y-166.8412
G00 Z2.0000
G00 X47.8396 Y-166.4870
G01 F60.00
G01 Z-2.4000
G01 F120.00
G01 X48.1145 Y-166.4870
G01 X48.1145 Y-166.8121
G01 X48.1151 Y-166.8244
G01 X48.1169 Y-166.8365
G01 X48.1199 Y-166.8484
G01 X48.1241 Y-166.8600
G01 X48.1293 Y-166.8711
G01 X48.1356 Y-166.8816
G01 X48.1429 Y-166.8914
G01 X48.1512 Y-166.9005
G01 X50.6065 Y-169.3559
G01 X50.6065 Y-171.4489
G01 X49.5495 Y-172.5060
G01 X49.5300 Y-172.5050
G01 X49.4467 Y-172.5091
G01 X49.3642 Y-172.5213
G01 X49.2833 Y-172.5416
G01 X49.2047 Y-172.5697
G01 X49.1293 Y-172.6054
G01 X49.0578 Y-172.6483
G01 X48.9908 Y-172.6979
G01 X48.9290 Y-172.7540
G01 X48.8729 Y-172.8158
G01 X48.8233 Y-172.8828
G01 X48.7804 Y-172.9543
G01 X48.7447 Y-173.0297
G01 X48.7166 Y-173.1083
G01 X48.6963 Y-173.1892
G01 X48.6841 Y-173.2717
G01 X48.6800 Y-173.3550
G01 X48.6841 Y-173.4383
G01 X48.6963 Y-173.5208
G01 X48.7166 Y-173.6017
G01 X48.7447 Y-173.6803
G01 X48.7804 Y-173.7557
G01 X48.8233 Y-173.8272
G01 X48.8729 Y-173.8942
G01 X48.9290 Y-173.9560
G01 X48.9908 Y-174.0121
G01 X49.0578 Y-174.0617
G01 X49.1293 Y-174.1046
G01 X49.2047 Y-174.1403
G01 X49.2833 Y-174.1684
G01 X49.3642 Y-174.1887
G01 X49.4467 Y-174.2009
G01 X49.5300 Y-174.2050
G01 X49.6133 Y-174.2009
G01 X49.6958 Y-174.1887
G01 X49.7767 Y-174.1684
G01 X49.8553 Y-174.1403
G01 X49.9307 Y-174.1046
G01 X50.0022 Y-174.0617
G01 X50.0692 Y-174.0121
G01 X50.1310 Y-173.9560
G01 X50.1871 Y-173.8942
G01 X50.2367 Y-173.8272
G01 X50.2796 Y-173.7557
G01 X50.3153 Y-173.6803
G01 X50.3434 Y-173.6017
G01 X50.3637 Y-173.5208
G01 X50.3759 Y-173.4383
G01 X50.3800 Y-173.3550
G01 X50.3759 Y-173.2717
G01 X50.3637 Y-173.1892
G01 X50.3434 Y-173.1083
G01 X50.3153 Y-173.0297
G01 X50.2796 Y-172.9543
G01 X50.2367 Y-172.8828
G01 X50.1871 Y-172.8158
G01 X50.1310 Y-172.7540
G01 X50.0692 Y-172.6979
G01 X50.0022 Y-172.6483
G01 X49.9307 Y-172.6054
G01 X49.8553 Y-172.5697
G01 X49.8436 Y-172.5655
G01 X50.8200 Y-171.5891
G01 X50.8283 Y-171.5800
G01 X50.8356 Y-171.5702
G01 X50.8419 Y-171.5597
G01 X50.8471 Y-171.5486
G01 X50.8513 Y-171.5370
G01 X50.8543 Y-171.5251
G01 X50.8561 Y-171.5130
G01 X50.8567 Y-171.5007
G01 X50.8567 Y-169.3041
G01 X50.8561 Y-169.2918
G01 X50.8543 Y-169.2797
G01 X50.8513 Y-169.2678
G01 X50.8471 Y-169.2562
G01 X50.8419 Y-169.2451
G01 X50.8356 Y-169.2346
G01 X50.8283 Y-169.2248
G01 X50.8200 Y-169.2157
G01 X48.3647 Y-166.7603
G01 X48.3647 Y-166.4870
G01 X48.6396 Y-166.4870
G01 X48.6396 Y-165.1870
G01 X47.8396 Y-165.1870
G01 X47.8396 Y-166.4870
G00 Z2.0000
G00 X47.3596 Y-166.4870
G01 F60.00
G01 Z-2.4000
G01 F120.00
G01 X47.3596 Y-165.1870
G01 X46.5596 Y-165.1870
G01 X46.5596 Y-166.4870
G01 X47.3596 Y-166.4870
G00 Z2.0000
G00 X47.6064 Y-168.1768
G01 F60.00
G01 Z-2.4000
G01 F120.00
G01 X47.6603 Y-168.2576
G01 X47.7411 Y-168.3115
G01 X47.8364 Y-168.3305
G01 X48.2109 Y-168.3305
G01 X48.2304 Y-168.3297
G01 X48.3239 Y-168.3034
G01 X48.3887 Y-168.2704
G01 X48.5140 Y-168.2505
G01 X48.5932 Y-168.2631
G01 X48.6322 Y-168.2661
G01 X48.7274 Y-168.2472
G01 X48.8082 Y-168.1932
G01 X48.8622 Y-168.1124
G01 X48.8812 Y-168.0171
G01 X48.8622 Y-167.9218
G01 X48.8082 Y-167.8410
G01 X48.3111 Y-167.3439
G01 X48.2595 Y-167.3043
G01 X48.1675 Y-167.2731
G01 X48.0705 Y-167.2794
G01 X47.9834 Y-167.3224
G01 X47.9193 Y-167.3955
G01 X47.8881 Y-167.4875
G01 X47.8750 Y-167.5868
G01 X47.8145 Y-167.7328
G01 X47.7183 Y-167.8583
G01 X47.6848 Y-167.8840
G01 X47.6603 Y-167.9054
G01 X47.6064 Y-167.9862
G01 X47.5874 Y-168.0815
G01 X47.6064 Y-168.1768
G00 Z2.0000
G00 X47.2450 Y-169.7180
G01 F60.00
G01 Z-2.4000
G01 F120.00
G01 X47.2260 Y-169.8133
G01 X47.2260 Y-176.7354
G01 X47.2345 Y-176.7999
G01 X47.2775 Y-176.8870
G01 X47.3505 Y-176.9511
G01 X47.4425 Y-176.9823
G01 X47.5260 Y-176.9933
G01 X47.5585 Y-176.9954
G01 X47.6538 Y-176.9765
G01 X47.7346 Y-176.9225
G01 X47.7885 Y-176.8417
G01 X47.8075 Y-176.7464
G01 X47.8075 Y-172.2371
G01 X47.8066 Y-172.2154
G01 X47.8037 Y-172.1832
G01 X47.8121 Y-172.1520
G01 X47.8168 Y-172.1308
G01 X47.8224 Y-172.0990
G01 X47.8273 Y-172.0854
G01 X47.8334 Y-172.0723
G01 X47.8520 Y-172.0458
G01 X47.8636 Y-172.0275
G01 X47.8798 Y-171.9995
G01 X47.9046 Y-171.9788
G01 X47.9206 Y-171.9641
G01 X48.4751 Y-171.4096
G01 X48.5186 Y-171.3509
G01 X48.5468 Y-171.2580
G01 X48.5373 Y-171.1613
G01 X48.4947 Y-171.0209
G01 X48.4744 Y-170.8150
G01 X48.4947 Y-170.6091
G01 X48.5548 Y-170.4110
G01 X48.6523 Y-170.2285
G01 X48.7836 Y-170.0686
G01 X48.9435 Y-169.9373
G01 X49.1260 Y-169.8398
G01 X49.3241 Y-169.7797
G01 X49.5300 Y-169.7594
G01 X49.7359 Y-169.7797
G01 X49.9340 Y-169.8398
G01 X50.0397 Y-169.8963
G01 X50.0618 Y-169.9067
G01 X50.1571 Y-169.9257
G01 X50.2524 Y-169.9067
G01 X50.3332 Y-169.8528
G01 X50.3871 Y-169.7720
G01 X50.4061 Y-169.6767
G01 X50.4061 Y-169.5421
G01 X50.3871 Y-169.4468
G01 X50.3332 Y-169.3660
G01 X49.3290 Y-168.3618
G01 X49.2992 Y-168.3364
G01 X49.2110 Y-168.2957
G01 X49.1139 Y-168.2919
G01 X49.0228 Y-168.3255
G01 X48.9514 Y-168.3915
G01 X48.9108 Y-168.4797
G01 X48.9069 Y-168.5768
G01 X48.9195 Y-168.6560
G01 X48.8996 Y-168.7813
G01 X48.8421 Y-168.8943
G01 X48.7523 Y-168.9841
G01 X48.6393 Y-169.0416
G01 X48.5140 Y-169.0615
G01 X48.4905 Y-169.0578
G01 X48.3934 Y-169.0616
G01 X48.3052 Y-169.1023
G01 X48.2392 Y-169.1736
G01 X48.2056 Y-169.2647
G01 X48.1898 Y-169.3641
G01 X48.1323 Y-169.4771
G01 X48.0425 Y-169.5669
G01 X47.9295 Y-169.6244
G01 X47.8042 Y-169.6443
G01 X47.6789 Y-169.6244
G01 X47.6141 Y-169.5914
G01 X47.5964 Y-169.5833
G01 X47.5011 Y-169.5643
G01 X47.4750 Y-169.5643
G01 X47.3797 Y-169.5833
G01 X47.2989 Y-169.6372
G01 X47.2450 Y-169.7180
G00 Z2.0000
G00 X48.7460 Y-172.1009
G01 F60.00
G01 Z-2.4000
G01 F120.00
G01 X48.7364 Y-172.1976
G01 X48.7646 Y-172.2906
G01 X48.8263 Y-172.3657
G01 X48.9120 Y-172.4115
G01 X49.0086 Y-172.4210
G01 X49.1016 Y-172.3928
G01 X49.1260 Y-172.3798
G01 X49.3123 Y-172.3233
G01 X49.3574 Y-172.3046
G01 X49.4325 Y-172.2430
G01 X49.4783 Y-172.1573
G01 X49.4878 Y-172.0606
G01 X49.4596 Y-171.9676
G01 X49.3980 Y-171.8925
G01 X49.3123 Y-171.8467
G01 X49.1837 Y-171.8077
G01 X49.1115 Y-171.7970
G01 X49.0162 Y-171.8160
G01 X48.9354 Y-171.8699
G01 X48.8082 Y-171.9972
G01 X48.7918 Y-172.0153
G01 X48.7460 Y-172.1009
G00 Z2.0000
G00 X51.2860 Y-172.1009
G01 F60.00
G01 Z-2.4000
G01 F120.00
G01 X51.2764 Y-172.1976
G01 X51.3046 Y-172.2906
G01 X51.3663 Y-172.3657
G01 X51.4519 Y-172.4115
G01 X51.5486 Y-172.4210
G01 X51.6416 Y-172.3928
G01 X51.6660 Y-172.3798
G01 X51.8523 Y-172.3233
G01 X51.8974 Y-172.3046
G01 X51.9725 Y-172.2430
G01 X52.0183 Y-172.1573
G01 X52.0278 Y-172.0606
G01 X51.9996 Y-171.9676
G01 X51.9380 Y-171.8925
G01 X51.8523 Y-171.8467
G01 X51.7237 Y-171.8077
G01 X51.6515 Y-171.7970
G01 X51.5562 Y-171.8160
G01 X51.4754 Y-171.8699
G01 X51.3481 Y-171.9972
G01 X51.3318 Y-172.0153
G01 X51.2860 Y-172.1009
G00 Z2.0000
G00 X51.2363 Y-173.5208
G01 F60.00
G01 Z-2.4000
G01 F120.00
G01 X51.2566 Y-173.6017
G01 X51.2847 Y-173.6803
G01 X51.3204 Y-173.7557
G01 X51.3633 Y-173.8272
G01 X51.4129 Y-173.8942
G01 X51.4690 Y-173.9560
G01 X51.5308 Y-174.0121
G01 X51.5978 Y-174.0617
G01 X51.6693 Y-174.1046
G01 X51.7447 Y-174.1403
G01 X51.8233 Y-174.1684
G01 X51.9042 Y-174.1887
G01 X51.9867 Y-174.2009
G01 X52.0700 Y-174.2050
G01 X52.1533 Y-174.2009
G01 X52.2358 Y-174.1887
G01 X52.3167 Y-174.1684
G01 X52.3953 Y-174.1403
G01 X52.4707 Y-174.1046
G01 X52.5422 Y-174.0617
G01 X52.6092 Y-174.0121
G01 X52.6710 Y-173.9560
G01 X52.7271 Y-173.8942
G01 X52.7767 Y-173.8272
G01 X52.8196 Y-173.7557
G01 X52.8553 Y-173.6803
G01 X52.8834 Y-173.6017
G01 X52.9037 Y-173.5208
G01 X52.9159 Y-173.4383
G01 X52.9200 Y-173.3550
G01 X52.9159 Y-173.2717
G01 X52.9037 Y-173.1892
G01 X52.8834 Y-173.1083
G01 X52.8553 Y-173.0297
G01 X52.8196 Y-172.9543
G01 X52.7767 Y-172.8828
G01 X52.7271 Y-172.8158
G01 X52.6710 Y-172.7540
G01 X52.6092 Y-172.6979
G01 X52.5603 Y-172.6616
G01 X52.5603 Y-172.2317
G01 X53.3358 Y-171.4561
G01 X53.3441 Y-171.4470
G01 X53.3514 Y-171.4372
G01 X53.3577 Y-171.4267
G01 X53.3629 Y-171.4156
G01 X53.3671 Y-171.4040
G01 X53.3701 Y-171.3921
G01 X53.3719 Y-171.3800
G01 X53.3725 Y-171.3677
G01 X53.3725 Y-168.5064
G01 X53.3719 Y-168.4941
G01 X53.3701 Y-168.4820
G01 X53.3671 Y-168.4701
G01 X53.3629 Y-168.4585
G01 X53.3577 Y-168.4474
G01 X53.3514 Y-168.4369
G01 X53.3441 Y-168.4271
G01 X53.3358 Y-168.4180
G01 X52.1747 Y-167.2568
G01 X52.1747 Y-166.4870
G01 X52.4496 Y-166.4870
G01 X52.4496 Y-165.1870
G01 X51.6496 Y-165.1870
G01 X51.6496 Y-166.4870
G01 X51.9245 Y-166.4870
G01 X51.9245 Y-167.3086
G01 X51.9251 Y-167.3209
G01 X51.9269 Y-167.3330
G01 X51.9299 Y-167.3449
G01 X51.9341 Y-167.3565
G01 X51.9393 Y-167.3676
G01 X51.9456 Y-167.3781
G01 X51.9529 Y-167.3879
G01 X51.9612 Y-167.3970
G01 X53.1223 Y-168.5582
G01 X53.1223 Y-171.3159
G01 X52.3468 Y-172.0915
G01 X52.3385 Y-172.1006
G01 X52.3312 Y-172.1104
G01 X52.3249 Y-172.1209
G01 X52.3197 Y-172.1320
G01 X52.3155 Y-172.1436
G01 X52.3125 Y-172.1555
G01 X52.3107 Y-172.1676
G01 X52.3101 Y-172.1799
G01 X52.3101 Y-172.5399
G01 X52.2358 Y-172.5213
G01 X52.1533 Y-172.5091
G01 X52.0700 Y-172.5050
G01 X51.9867 Y-172.5091
G01 X51.9042 Y-172.5213
G01 X51.8233 Y-172.5416
G01 X51.7447 Y-172.5697
G01 X51.6693 Y-172.6054
G01 X51.5978 Y-172.6483
G01 X51.5308 Y-172.6979
G01 X51.4690 Y-172.7540
G01 X51.4129 Y-172.8158
G01 X51.3633 Y-172.8828
G01 X51.3204 Y-172.9543
G01 X51.2847 Y-173.0297
G01 X51.2566 Y-173.1083
G01 X51.2363 Y-173.1892
G01 X51.2241 Y-173.2717
G01 X51.2200 Y-173.3550
G01 X51.2241 Y-173.4383
G01 X51.2363 Y-173.5208
G00 Z2.0000
G00 X51.0497 Y-174.2922
G01 F60.00
G01 Z-2.4000
G01 F120.00
G01 X51.0307 Y-174.3875
G01 X51.0307 Y-174.5955
G01 X51.0497 Y-174.6908
G01 X51.1036 Y-174.7716
G01 X51.1844 Y-174.8255
G01 X51.2797 Y-174.8445
G01 X51.6827 Y-174.8445
G01 X51.7071 Y-174.8433
G01 X51.8001 Y-174.8151
G01 X51.8752 Y-174.7535
G01 X51.9210 Y-174.6678
G01 X51.9305 Y-174.5711
G01 X51.9023 Y-174.4781
G01 X51.8407 Y-174.4030
G01 X51.7550 Y-174.3572
G01 X51.6660 Y-174.3302
G01 X51.4835 Y-174.2327
G01 X51.4377 Y-174.1950
G01 X51.3750 Y-174.1575
G01 X51.2797 Y-174.1385
G01 X51.1844 Y-174.1575
G01 X51.1036 Y-174.2114
G01 X51.0497 Y-174.2922
G00 Z2.0000
G00 X51.2200 Y-175.0450
G01 F60.00
G01 Z-2.4000
G01 F120.00
G01 X51.2200 Y-176.7450
G01 X52.9200 Y-176.7450
G01 X52.9200 Y-175.0450
G01 X51.2200 Y-175.0450
G00 Z2.0000
G00 X52.2272 Y-174.6908
G01 F60.00
G01 Z-2.4000
G01 F120.00
G01 X52.2812 Y-174.7716
G01 X52.3620 Y-174.8255
G01 X52.4573 Y-174.8445
G01 X52.8605 Y-174.8445
G01 X52.9558 Y-174.8255
G01 X53.0366 Y-174.7716
G01 X53.0905 Y-174.6908
G01 X53.1095 Y-174.5955
G01 X53.1095 Y-174.3873
G01 X53.0988 Y-174.3151
G01 X53.0530 Y-174.2294
G01 X52.9779 Y-174.1677
G01 X52.8849 Y-174.1395
G01 X52.7882 Y-174.1491
G01 X52.7025 Y-174.1949
G01 X52.6565 Y-174.2327
G01 X52.4740 Y-174.3302
G01 X52.3850 Y-174.3572
G01 X52.3620 Y-174.3655
G01 X52.2812 Y-174.4194
G01 X52.2272 Y-174.5002
G01 X52.2083 Y-174.5955
G01 X52.2272 Y-174.6908
G00 Z2.0000
G00 X53.7763 Y-173.5058
G01 F60.00
G01 Z-2.4000
G01 F120.00
G01 X53.7966 Y-173.5867
G01 X53.8247 Y-173.6653
G01 X53.8604 Y-173.7407
G01 X53.9033 Y-173.8122
G01 X53.9529 Y-173.8792
G01 X54.0090 Y-173.9410
G01 X54.0708 Y-173.9971
G01 X54.1378 Y-174.0467
G01 X54.2093 Y-174.0896
G01 X54.2847 Y-174.1253
G01 X54.3633 Y-174.1534
G01 X54.4442 Y-174.1737
G01 X54.5267 Y-174.1859
G01 X54.6100 Y-174.1900
G01 X54.6933 Y-174.1859
G01 X54.7758 Y-174.1737
G01 X54.8567 Y-174.1534
G01 X54.9353 Y-174.1253
G01 X55.0107 Y-174.0896
G01 X55.0822 Y-174.0467
G01 X55.1492 Y-173.9971
G01 X55.2110 Y-173.9410
G01 X55.2671 Y-173.8792
G01 X55.3167 Y-173.8122
G01 X55.3596 Y-173.7407
G01 X55.3953 Y-173.6653
G01 X55.4234 Y-173.5867
G01 X55.4437 Y-173.5058
G01 X55.4559 Y-173.4233
G01 X55.4600 Y-173.3400
G01 X55.4559 Y-173.2567
G01 X55.4437 Y-173.1742
G01 X55.4234 Y-173.0933
G01 X55.3953 Y-173.0147
G01 X55.3596 Y-172.9393
G01 X55.3167 Y-172.8678
G01 X55.2922 Y-172.8347
G01 X55.8752 Y-172.2516
G01 X55.8835 Y-172.2425
G01 X55.8908 Y-172.2327
G01 X55.8971 Y-172.2222
G01 X55.9023 Y-172.2111
G01 X55.9065 Y-172.1995
G01 X55.9095 Y-172.1876
G01 X55.9113 Y-172.1755
G01 X55.9119 Y-172.1632
G01 X55.9119 Y-168.7555
G01 X55.9113 Y-168.7432
G01 X55.9095 Y-168.7311
G01 X55.9065 Y-168.7192
G01 X55.9023 Y-168.7076
G01 X55.8971 Y-168.6965
G01 X55.8908 Y-168.6860
G01 X55.8835 Y-168.6762
G01 X55.8752 Y-168.6671
G01 X54.7047 Y-167.4965
G01 X54.7047 Y-166.4870
G01 X54.9796 Y-166.4870
G01 X54.9796 Y-165.1870
G01 X54.1796 Y-165.1870
G01 X54.1796 Y-166.4870
G01 X54.4545 Y-166.4870
G01 X54.4545 Y-167.5483
G01 X54.4551 Y-167.5606
G01 X54.4569 Y-167.5727
G01 X54.4599 Y-167.5846
G01 X54.4641 Y-167.5962
G01 X54.4693 Y-167.6073
G01 X54.4756 Y-167.6178
G01 X54.4829 Y-167.6276
G01 X54.4912 Y-167.6367
G01 X55.6617 Y-168.8073
G01 X55.6617 Y-172.1114
G01 X55.1153 Y-172.6578
G01 X55.0822 Y-172.6333
G01 X55.0107 Y-172.5904
G01 X54.9353 Y-172.5547
G01 X54.8567 Y-172.5266
G01 X54.7758 Y-172.5063
G01 X54.6933 Y-172.4941
G01 X54.6100 Y-172.4900
G01 X54.5267 Y-172.4941
G01 X54.4442 Y-172.5063
G01 X54.3633 Y-172.5266
G01 X54.2847 Y-172.5547
G01 X54.2093 Y-172.5904
G01 X54.1378 Y-172.6333
G01 X54.0708 Y-172.6829
G01 X54.0090 Y-172.7390
G01 X53.9529 Y-172.8008
G01 X53.9033 Y-172.8678
G01 X53.8604 Y-172.9393
G01 X53.8247 Y-173.0147
G01 X53.7966 Y-173.0933
G01 X53.7763 Y-173.1742
G01 X53.7641 Y-173.2567
G01 X53.7600 Y-173.3400
G01 X53.7641 Y-173.4233
G01 X53.7763 Y-173.5058
G00 Z2.0000
G00 X53.8260 Y-172.0859
G01 F60.00
G01 Z-2.4000
G01 F120.00
G01 X53.8164 Y-172.1826
G01 X53.8446 Y-172.2756
G01 X53.9063 Y-172.3507
G01 X53.9919 Y-172.3965
G01 X54.0886 Y-172.4060
G01 X54.1816 Y-172.3778
G01 X54.2060 Y-172.3648
G01 X54.3923 Y-172.3083
G01 X54.4374 Y-172.2896
G01 X54.5125 Y-172.2280
G01 X54.5583 Y-172.1423
G01 X54.5678 Y-172.0456
G01 X54.5396 Y-171.9526
G01 X54.4780 Y-171.8775
G01 X54.3923 Y-171.8317
G01 X54.2637 Y-171.7927
G01 X54.1915 Y-171.7820
G01 X54.0962 Y-171.8010
G01 X54.0154 Y-171.8549
G01 X53.8881 Y-171.9822
G01 X53.8718 Y-172.0003
G01 X53.8260 Y-172.0859
G00 Z2.0000
G00 X54.6617 Y-171.9977
G01 F60.00
G01 Z-2.4000
G01 F120.00
G01 X54.6522 Y-172.0944
G01 X54.6804 Y-172.1874
G01 X54.7420 Y-172.2625
G01 X54.8277 Y-172.3083
G01 X54.9563 Y-172.3473
G01 X55.0285 Y-172.3580
G01 X55.1238 Y-172.3390
G01 X55.2046 Y-172.2851
G01 X55.3318 Y-172.1578
G01 X55.3482 Y-172.1397
G01 X55.3940 Y-172.0540
G01 X55.4036 Y-171.9574
G01 X55.3754 Y-171.8644
G01 X55.3137 Y-171.7893
G01 X55.2280 Y-171.7435
G01 X55.1314 Y-171.7340
